**kern	**kern	**kern	**kern	**kern	**kern	**kern	**kern	**kern	**kern	**kern	**kern	**kern	**kern	**kern	**kern	**kern	**kern
*ITrd7c12	*	*	*	*	*	*ITrd-1c-2	*ITrd-1c-2	*ITrd3c5	*ITrd3c5	*	*	*ITrd2c3	*ITrd2c3	*	*	*	*
*	*Icello	*Iviola	*Ivioln	*Ivioln	*Itimpa	*	*	*	*	*Ifagot	*Ifagot	*	*	*Ioboe	*Ioboe	*Iflt	*Iflt
*Icbass	*I"Violoncello	*I"Viola	*I#2	*I#1	*I"Timpani	*Itromp	*Itromp	*Icor	*Icor	*I#2	*I#1	*Iclars	*Iclars	*I#2	*I#1	*I#2	*I#1
*I"Basso	*	*	*I"Violino II	*I"Violino I	*	*I#2	*I#1	*I#2	*I#1	*I"Fagotto 2	*I"Fagotto 1	*I#2	*I#1	*I"Oboe 2	*I"Oboe 1	*I"Flauto 2	*I"Flauto 1
*	*	*	*	*	*	*I"Tromba 2	*I"Tromba 1	*I"Corno 2	*I"Corno 1	*	*	*I"Clarinet 2	*I"Clarinet 1	*	*	*	*
*>[A,A,B,B,C]	*>[A,A,B,B,C]	*>[A,A,B,B,C]	*>[A,A,B,B,C]	*>[A,A,B,B,C]	*>[A,A,B,B,C]	*>[A,A,B,B,C]	*>[A,A,B,B,C]	*>[A,A,B,B,C]	*>[A,A,B,B,C]	*>[A,A,B,B,C]	*>[A,A,B,B,C]	*>[A,A,B,B,C]	*>[A,A,B,B,C]	*>[A,A,B,B,C]	*>[A,A,B,B,C]	*>[A,A,B,B,C]	*>[A,A,B,B,C]
*>norep[A,B,C]	*>norep[A,B,C]	*>norep[A,B,C]	*>norep[A,B,C]	*>norep[A,B,C]	*>norep[A,B,C]	*>norep[A,B,C]	*>norep[A,B,C]	*>norep[A,B,C]	*>norep[A,B,C]	*>norep[A,B,C]	*>norep[A,B,C]	*>norep[A,B,C]	*>norep[A,B,C]	*>norep[A,B,C]	*>norep[A,B,C]	*>norep[A,B,C]	*>norep[A,B,C]
=1	=1	=1	=1	=1	=1	=1	=1	=1	=1	=1	=1	=1	=1	=1	=1	=1	=1
*>A	*>A	*>A	*>A	*>A	*>A	*>A	*>A	*>A	*>A	*>A	*>A	*>A	*>A	*>A	*>A	*>A	*>A
*staff:5	*staff:5	*staff:6	*staff:7	*staff:8	*staff:9	*staff:10	*staff:10	*staff:11	*staff:11	*staff:12	*staff:12	*staff:13	*staff:13	*staff:14	*staff:14	*staff:15	*staff:15
*clefF4	*clefF4	*clefC3	*clefG2	*clefG2	*clefF4	*clefG2	*clefG2	*clefG2	*clefG2	*clefF4	*clefF4	*clefG2	*clefG2	*clefG2	*clefG2	*clefG2	*clefG2
*k[f#]	*k[f#]	*k[f#]	*k[f#]	*k[f#]	*M2/4	*M2/4	*M2/4	*M2/4	*M2/4	*k[f#]	*k[f#]	*k[f#c#]	*k[f#c#]	*k[f#]	*k[f#]	*k[f#]	*k[f#]
*M2/4	*M2/4	*M2/4	*M2/4	*M2/4	*	*	*	*	*	*M2/4	*M2/4	*M2/4	*M2/4	*M2/4	*M2/4	*M2/4	*M2/4
8GG	8G	8G	8d	8..b	2r	2r	2r	2r	2r	2r	2r	2r	2r	2r	2r	2r	2r
8r	8r	8r	8r	.	.	.	.	.	.	.	.	.	.	.	.	.	.
.	.	.	.	32cc	.	.	.	.	.	.	.	.	.	.	.	.	.
8DD	8D	8f#	8c	8a'	.	.	.	.	.	.	.	.	.	.	.	.	.
8r	8r	8r	8r	8dd'	.	.	.	.	.	.	.	.	.	.	.	.	.
=2	=2	=2	=2	=2	=2	=2	=2	=2	=2	=2	=2	=2	=2	=2	=2	=2	=2
8EE	8E	8g	8B	8g	2r	2r	2r	2r	2r	2r	2r	2r	2r	2r	2r	2r	2r
8r	8r	8r	8r	8r	.	.	.	.	.	.	.	.	.	.	.	.	.
8r	8r	8r	8r	8r	.	.	.	.	.	.	.	.	.	.	.	.	.
8CCz	8Cz	8ez	8gz	8eez	.	.	.	.	.	.	.	.	.	.	.	.	.
=3	=3	=3	=3	=3	=3	=3	=3	=3	=3	=3	=3	=3	=3	=3	=3	=3	=3
8C	8c	8A	8d	8f#	2r	2r	2r	2r	2r	2r	2r	2r	2r	2r	2r	2r	2r
8BB'	8B'	8d'	8d'	8g'	.	.	.	.	.	.	.	.	.	.	.	.	.
8AA'	8A'	8c'	8f#'	8a'	.	.	.	.	.	.	.	.	.	.	.	.	.
8GG'	8G'	16B	8g'	8b'	.	.	.	.	.	.	.	.	.	.	.	.	.
.	.	16G	.	.	.	.	.	.	.	.	.	.	.	.	.	.	.
=4	=4	=4	=4	=4	=4	=4	=4	=4	=4	=4	=4	=4	=4	=4	=4	=4	=4
4DD	4D	4D	8a'	8cc'	2r	2r	2r	2r	2r	2r	2r	2r	2r	2r	2r	2r	2r
.	.	.	8aq	8ccq	.	.	.	.	.	.	.	.	.	.	.	.	.
.	.	.	16g	16b	.	.	.	.	.	.	.	.	.	.	.	.	.
.	.	.	32f#	32a	.	.	.	.	.	.	.	.	.	.	.	.	.
.	.	.	32g	32b	.	.	.	.	.	.	.	.	.	.	.	.	.
4r	4r	4r	8f#	8a	.	.	.	.	.	.	.	.	.	.	.	.	.
.	.	.	8r	8r	.	.	.	.	.	.	.	.	.	.	.	.	.
=5	=5	=5	=5	=5	=5	=5	=5	=5	=5	=5	=5	=5	=5	=5	=5	=5	=5
8GG	8G	8D	8d	8..b	2r	2r	2r	2r	2r	2r	2r	2r	2r	2r	2r	2r	2r
8r	8r	8r	8r	.	.	.	.	.	.	.	.	.	.	.	.	.	.
.	.	.	.	32cc	.	.	.	.	.	.	.	.	.	.	.	.	.
8DD	8D	8F#	8c	8a'	.	.	.	.	.	.	.	.	.	.	.	.	.
8r	8r	8r	8r	8dd'	.	.	.	.	.	.	.	.	.	.	.	.	.
=6	=6	=6	=6	=6	=6	=6	=6	=6	=6	=6	=6	=6	=6	=6	=6	=6	=6
2EE	2E	2G	2c#	8g'	2r	2r	2r	2r	2r	2r	2r	2r	2r	2r	2r	2r	2r
.	.	.	.	8b'	.	.	.	.	.	.	.	.	.	.	.	.	.
.	.	.	.	8e'	.	.	.	.	.	.	.	.	.	.	.	.	.
.	.	.	.	8b-z	.	.	.	.	.	.	.	.	.	.	.	.	.
=7	=7	=7	=7	=7	=7	=7	=7	=7	=7	=7	=7	=7	=7	=7	=7	=7	=7
8FF#	8F#	8F#	8d	8d	2r	2r	2r	2r	2r	2r	2r	2r	2r	2r	2r	2r	2r
8GG'	8G'	8G'	8d'	8g'	.	.	.	.	.	.	.	.	.	.	.	.	.
8AA'	8A'	8A'	8d'	8f#'	.	.	.	.	.	.	.	.	.	.	.	.	.
8AAA'	8AA'	8G'	8c#'	8e'	.	.	.	.	.	.	.	.	.	.	.	.	.
=8	=8	=8	=8	=8	=8	=8	=8	=8	=8	=8	=8	=8	=8	=8	=8	=8	=8
*staff:1	*staff:1	*staff:2	*staff:3	*staff:4	*	*	*	*	*	*	*	*	*	*	*	*	*
8r	8r	4F#	4d	4d	2ryy	2ryy	2ryy	2ryy	2ryy	2ryy	2ryy	2ryy	2ryy	2ryy	2ryy	2ryy	2ryy
8AAA'	8AA'	.	.	.	.	.	.	.	.	.	.	.	.	.	.	.	.
8DDD'	8DD'	4r	4r	4r	.	.	.	.	.	.	.	.	.	.	.	.	.
8r	8r	.	.	.	.	.	.	.	.	.	.	.	.	.	.	.	.
=9:||:	=9:||:	=9:||:	=9:||:	=9:||:	=9:||:	=9:||:	=9:||:	=9:||:	=9:||:	=9:||:	=9:||:	=9:||:	=9:||:	=9:||:	=9:||:	=9:||:	=9:||:
*>B	*>B	*>B	*>B	*>B	*>B	*>B	*>B	*>B	*>B	*>B	*>B	*>B	*>B	*>B	*>B	*>B	*>B
2ryy	8..cn	2r	4f#	8a	2ryy	2ryy	2ryy	2ryy	2ryy	2ryy	2ryy	2ryy	2ryy	2ryy	2ryy	2ryy	2ryy
.	.	.	.	16d	.	.	.	.	.	.	.	.	.	.	.	.	.
.	.	.	.	16r	.	.	.	.	.	.	.	.	.	.	.	.	.
.	32d	.	.	.	.	.	.	.	.	.	.	.	.	.	.	.	.
.	8B'	.	4g#	8b	.	.	.	.	.	.	.	.	.	.	.	.	.
.	8e'	.	.	16d	.	.	.	.	.	.	.	.	.	.	.	.	.
.	.	.	.	16r	.	.	.	.	.	.	.	.	.	.	.	.	.
=10	=10	=10	=10	=10	=10	=10	=10	=10	=10	=10	=10	=10	=10	=10	=10	=10	=10
2ryy	8A	2r	8a'	8cc'	2ryy	2ryy	2ryy	2ryy	2ryy	2ryy	2ryy	2ryy	2ryy	2ryy	2ryy	2ryy	2ryy
.	8r	.	8b'	8dd'	.	.	.	.	.	.	.	.	.	.	.	.	.
.	4r	.	8cc'	8ee'	.	.	.	.	.	.	.	.	.	.	.	.	.
.	.	.	8r	8r	.	.	.	.	.	.	.	.	.	.	.	.	.
=11	=11	=11	=11	=11	=11	=11	=11	=11	=11	=11	=11	=11	=11	=11	=11	=11	=11
2r	2r	8..fnz	4b	8dd	2ryy	2ryy	2ryy	2ryy	2ryy	2ryy	2ryy	2ryy	2ryy	2ryy	2ryy	2ryy	2ryy
.	.	.	.	16g	.	.	.	.	.	.	.	.	.	.	.	.	.
.	.	.	.	16r	.	.	.	.	.	.	.	.	.	.	.	.	.
.	.	32g	.	.	.	.	.	.	.	.	.	.	.	.	.	.	.
.	.	8e'	4cc#	8ee	.	.	.	.	.	.	.	.	.	.	.	.	.
.	.	8a'	.	16g	.	.	.	.	.	.	.	.	.	.	.	.	.
.	.	.	.	16r	.	.	.	.	.	.	.	.	.	.	.	.	.
=12	=12	=12	=12	=12	=12	=12	=12	=12	=12	=12	=12	=12	=12	=12	=12	=12	=12
2r	2r	8d	8dd'	8ffn'	2ryy	2ryy	2ryy	2ryy	2ryy	2ryy	2ryy	2ryy	2ryy	2ryy	2ryy	2ryy	2ryy
.	.	8r	8ee'	8gg'	.	.	.	.	.	.	.	.	.	.	.	.	.
.	.	8r	8ffn'	8aa'	.	.	.	.	.	.	.	.	.	.	.	.	.
.	.	8g	8b'	8dd'	.	.	.	.	.	.	.	.	.	.	.	.	.
=13	=13	=13	=13	=13	=13	=13	=13	=13	=13	=13	=13	=13	=13	=13	=13	=13	=13
4r	4r	4c	8cc'	8ee'	2ryy	2ryy	2ryy	2ryy	2ryy	2ryy	2ryy	2ryy	2ryy	2ryy	2ryy	2ryy	2ryy
.	.	.	8eeq	8ggq	.	.	.	.	.	.	.	.	.	.	.	.	.
.	.	.	16dd	16ffn	.	.	.	.	.	.	.	.	.	.	.	.	.
.	.	.	32cc	32ee	.	.	.	.	.	.	.	.	.	.	.	.	.
.	.	.	32dd	32ff	.	.	.	.	.	.	.	.	.	.	.	.	.
8r	8r	8r	8ee'	8gg'	.	.	.	.	.	.	.	.	.	.	.	.	.
8GG#'	8G#'	8G#'	8B'	16ff	.	.	.	.	.	.	.	.	.	.	.	.	.
.	.	.	.	16ee	.	.	.	.	.	.	.	.	.	.	.	.	.
=14	=14	=14	=14	=14	=14	=14	=14	=14	=14	=14	=14	=14	=14	=14	=14	=14	=14
8AA'	8A'	8A'	8c'	16ee	2ryy	2ryy	2ryy	2ryy	2ryy	2ryy	2ryy	2ryy	2ryy	2ryy	2ryy	2ryy	2ryy
.	.	.	.	16dd	.	.	.	.	.	.	.	.	.	.	.	.	.
8BB'	8B'	8B'	8d'	16dd	.	.	.	.	.	.	.	.	.	.	.	.	.
.	.	.	.	16cc	.	.	.	.	.	.	.	.	.	.	.	.	.
8C'	8c'	8c'	8e'	8cc'	.	.	.	.	.	.	.	.	.	.	.	.	.
8GG#'	8G#'	8G#'	8B'	16ffn	.	.	.	.	.	.	.	.	.	.	.	.	.
.	.	.	.	16ee	.	.	.	.	.	.	.	.	.	.	.	.	.
=15	=15	=15	=15	=15	=15	=15	=15	=15	=15	=15	=15	=15	=15	=15	=15	=15	=15
*staff:11	*staff:11	*staff:12	*staff:13	*staff:14	*	*	*	*	*	*staff:15	*staff:15	*	*	*	*	*	*
8AA'	8A'	8A'	8c'	16ee	2ryy	2ryy	2ryy	2ryy	2ryy	2r	2r	2ryy	2ryy	2ryy	2ryy	2ryy	2ryy
.	.	.	.	16dd	.	.	.	.	.	.	.	.	.	.	.	.	.
8BB'	8B'	8B'	8e'	16dd	.	.	.	.	.	.	.	.	.	.	.	.	.
.	.	.	.	16cc	.	.	.	.	.	.	.	.	.	.	.	.	.
8C'	8c'	8c'	8e'	16cc	.	.	.	.	.	.	.	.	.	.	.	.	.
.	.	.	.	16b	.	.	.	.	.	.	.	.	.	.	.	.	.
8C#'	8c#'	8c#'	8g'	16b	.	.	.	.	.	.	.	.	.	.	.	.	.
.	.	.	.	16a	.	.	.	.	.	.	.	.	.	.	.	.	.
=16	=16	=16	=16	=16	=16	=16	=16	=16	=16	=16	=16	=16	=16	=16	=16	=16	=16
4D	4d	4d	4f#	8..a	2ryy	2ryy	2ryy	2ryy	2ryy	2r	2r	2ryy	2ryy	2ryy	2ryy	2ryy	2ryy
.	.	.	.	32b	.	.	.	.	.	.	.	.	.	.	.	.	.
4r	4r	4r	4r	8a'	.	.	.	.	.	.	.	.	.	.	.	.	.
.	.	.	.	8a#'	.	.	.	.	.	.	.	.	.	.	.	.	.
=17	=17	=17	=17	=17	=17	=17	=17	=17	=17	=17	=17	=17	=17	=17	=17	=17	=17
8GG	8G	8g	8d	8..b	2ryy	2ryy	2ryy	2ryy	2ryy	2ryy	8..B	2ryy	2ryy	2ryy	2ryy	2ryy	2ryy
8r	8r	8r	8r	.	.	.	.	.	.	.	.	.	.	.	.	.	.
.	.	.	.	32cc	.	.	.	.	.	.	32c	.	.	.	.	.	.
8DD	8D	8f#	8c	8a'	.	.	.	.	.	.	8A'	.	.	.	.	.	.
8r	8r	8r	8r	8dd'	.	.	.	.	.	.	8d'	.	.	.	.	.	.
=18	=18	=18	=18	=18	=18	=18	=18	=18	=18	=18	=18	=18	=18	=18	=18	=18	=18
8EE	8E	8g	8B	8g	2ryy	2ryy	2ryy	2ryy	2ryy	2ryy	8G	2ryy	2ryy	2ryy	2ryy	2ryy	2ryy
8r	8r	8r	8r	8r	.	.	.	.	.	.	8r	.	.	.	.	.	.
8r	8r	8r	8r	8r	.	.	.	.	.	.	8r	.	.	.	.	.	.
8CCz	8Cz	8ez	8gz	8eez	.	.	.	.	.	.	8ez	.	.	.	.	.	.
=19	=19	=19	=19	=19	=19	=19	=19	=19	=19	=19	=19	=19	=19	=19	=19	=19	=19
8C	8c	8A	8d	8f#	2ryy	2ryy	2ryy	2ryy	2ryy	2ryy	8F#	2ryy	2ryy	2ryy	2ryy	2ryy	2ryy
8BB'	8B'	8d'	8d'	8g'	.	.	.	.	.	.	8G'	.	.	.	.	.	.
8AA'	8A'	8c'	8f#'	8a'	.	.	.	.	.	.	8A'	.	.	.	.	.	.
8GG'	8G'	16B	8g'	8b'	.	.	.	.	.	.	8B'	.	.	.	.	.	.
.	.	16G	.	.	.	.	.	.	.	.	.	.	.	.	.	.	.
=20	=20	=20	=20	=20	=20	=20	=20	=20	=20	=20	=20	=20	=20	=20	=20	=20	=20
4DD	4D	4D	8a'	8cc'	2ryy	2ryy	2ryy	2ryy	2ryy	2ryy	8c'	2ryy	2ryy	2ryy	2ryy	2ryy	2ryy
.	.	.	16aQ	8ccq	.	.	.	.	.	.	8cq	.	.	.	.	.	.
.	.	.	16g	16b	.	.	.	.	.	.	16B	.	.	.	.	.	.
.	.	.	32f#	32a	.	.	.	.	.	.	32A	.	.	.	.	.	.
.	.	.	32g	32b	.	.	.	.	.	.	32B	.	.	.	.	.	.
4r	4r	4r	8f#'	8a'	.	.	.	.	.	.	8A'	.	.	.	.	.	.
.	.	.	8g#'	8b'	.	.	.	.	.	.	8B'	.	.	.	.	.	.
=21	=21	=21	=21	=21	=21	=21	=21	=21	=21	=21	=21	=21	=21	=21	=21	=21	=21
4.DD	4.D	2F#	8..a	8..cc	2ryy	2ryy	2ryy	2ryy	2ryy	2ryy	8..c	2ryy	2ryy	2ryy	2ryy	2ryy	2ryy
.	.	.	32b	32dd	.	.	.	.	.	.	32d	.	.	.	.	.	.
.	.	.	8a'	8cc'	.	.	.	.	.	.	8c'	.	.	.	.	.	.
8CC	8C	.	8a'	8cc#'	.	.	.	.	.	.	8c#'	.	.	.	.	.	.
=22	=22	=22	=22	=22	=22	=22	=22	=22	=22	=22	=22	=22	=22	=22	=22	=22	=22
2BBB	2BB	8D	2g	8..dd	2ryy	2ryy	2ryy	2ryy	2ryy	2ryy	8..d	2ryy	2ryy	2ryy	2ryy	2ryy	2ryy
.	.	4d	.	.	.	.	.	.	.	.	.	.	.	.	.	.	.
.	.	.	.	32ee	.	.	.	.	.	.	32e	.	.	.	.	.	.
.	.	.	.	8dd'	.	.	.	.	.	.	8d'	.	.	.	.	.	.
.	.	8d#	.	8dd#'	.	.	.	.	.	.	8d#'	.	.	.	.	.	.
=23	=23	=23	=23	=23	=23	=23	=23	=23	=23	=23	=23	=23	=23	=23	=23	=23	=23
*staff:6	*staff:6	*staff:7	*staff:8	*staff:9	*	*	*	*	*	*	*staff:10	*	*	*	*	*	*
2CC	2C	2d#	2G 2g	2dd#	2ryy	2ryy	2ryy	2ryy	2ryy	2ryy	[2d#	2ryy	2ryy	2ryy	2ryy	2ryy	2ryy
=24	=24	=24	=24	=24	=24	=24	=24	=24	=24	=24	=24	=24	=24	=24	=24	=24	=24
*	*	*	*	*	*	*	*	*	*	*staff:10	*	*	*	*	*	*	*
2CCz	2Cz	4.f#z	4.Az 4.d#z	4.ff#z	2ryy	2ryy	2ryy	2ryy	2ryy	4.A	4.d#Xz]	2ryy	2ryy	2ryy	2ryy	2ryy	2ryy
.	.	8e	8G 8e	8ee	.	.	.	.	.	8G	8e	.	.	.	.	.	.
=25	=25	=25	=25	=25	=25	=25	=25	=25	=25	=25	=25	=25	=25	=25	=25	=25	=25
2CC;	2C;	2e;	2G; 2e;y	2ee;	2ryy	2ryy	2ryy	2ryy	2ryy	2G;y	2e;	2ryy	2ryy	2ryy	2ryy	2ryy	2ryy
=26	=26	=26	=26	=26	=26	=26	=26	=26	=26	=26	=26	=26	=26	=26	=26	=26	=26
4.AA	4.A	4.a	8..cc	8..ee	2ryy	2ryy	2ryy	2ryy	2ryy	2r	2r	2ryy	2ryy	2ryy	2ryy	2ryy	2ryy
.	.	.	32dd	32ffn	.	.	.	.	.	.	.	.	.	.	.	.	.
.	.	.	8cc'	8ee	.	.	.	.	.	.	.	.	.	.	.	.	.
8GG	8G	8g	8cc'	8ee'	.	.	.	.	.	.	.	.	.	.	.	.	.
=27	=27	=27	=27	=27	=27	=27	=27	=27	=27	=27	=27	=27	=27	=27	=27	=27	=27
.	.	.	.	16dQ	.	.	.	.	.	.	.	.	.	.	.	.	.
.	.	.	.	16ddQ	.	.	.	.	.	.	.	.	.	.	.	.	.
4.FF#	4.F#	4.f#	4.d 4.a	4.cccn	2ryy	2ryy	2ryy	2ryy	2ryy	2r	2r	2ryy	2ryy	2ryy	2ryy	2ryy	2ryy
8GG	8G	8g	8b'	8bb'	.	.	.	.	.	.	.	.	.	.	.	.	.
=28	=28	=28	=28	=28	=28	=28	=28	=28	=28	=28	=28	=28	=28	=28	=28	=28	=28
8CC	8C	8c	8cc'	8aa'	2ryy	2ryy	2ryy	2ryy	2ryy	2r	2r	2ryy	2ryy	2ryy	2ryy	2ryy	2ryy
8r	8r	8r	8b'	8gg'	.	.	.	.	.	.	.	.	.	.	.	.	.
8DD	8D	8d	8a'	8ff#'	.	.	.	.	.	.	.	.	.	.	.	.	.
8r	8r	8r	8cc'	8aa'	.	.	.	.	.	.	.	.	.	.	.	.	.
=29	=29	=29	=29	=29	=29	=29	=29	=29	=29	=29	=29	=29	=29	=29	=29	=29	=29
4.EE	4.E	4.c#	4.b	4.gg	2ryy	2ryy	2ryy	2ryy	2ryy	2r	2r	2ryy	2ryy	2ryy	2ryy	2ryy	2ryy
8r	8r	8r	8a	8ff#	.	.	.	.	.	.	.	.	.	.	.	.	.
=30	=30	=30	=30	=30	=30	=30	=30	=30	=30	=30	=30	=30	=30	=30	=30	=30	=30
4r	4r	4r	8g	8ee	2ryy	2ryy	2ryy	2ryy	2ryy	2r	2r	2ryy	2ryy	2ryy	2ryy	2ryy	2ryy
.	.	.	8f#	8dd	.	.	.	.	.	.	.	.	.	.	.	.	.
8r	8r	8r	8e	8cc#	.	.	.	.	.	.	.	.	.	.	.	.	.
8C#	8c#	8c#	8g	8ee	.	.	.	.	.	.	.	.	.	.	.	.	.
=31	=31	=31	=31	=31	=31	=31	=31	=31	=31	=31	=31	=31	=31	=31	=31	=31	=31
8D	8d	8d	8f#	8dd	2ryy	2ryy	2ryy	2ryy	2ryy	2r	2r	2ryy	2ryy	2ryy	2ryy	2ryy	2ryy
8FF#	8F#	8F#	8e-	8ccn	.	.	.	.	.	.	.	.	.	.	.	.	.
8GG	8G	8G	8d	8b	.	.	.	.	.	.	.	.	.	.	.	.	.
8EE-	8E-	8E-	8c	8a	.	.	.	.	.	.	.	.	.	.	.	.	.
=32	=32	=32	=32	=32	=32	=32	=32	=32	=32	=32	=32	=32	=32	=32	=32	=32	=32
*staff:1	*staff:1	*staff:2	*staff:3	*staff:4	*	*	*	*	*	*staff:5	*staff:5	*	*	*	*	*	*
8DD	8D	8D	8B	8g#	2ryy	2ryy	2ryy	2ryy	2ryy	2r	2r	2ryy	2ryy	2ryy	2ryy	2ryy	2ryy
8CC#	8C#	8C#	8B-	8gn	.	.	.	.	.	.	.	.	.	.	.	.	.
.	.	.	.	16aQ	.	.	.	.	.	.	.	.	.	.	.	.	.
.	.	.	.	16gQ	.	.	.	.	.	.	.	.	.	.	.	.	.
.	.	.	.	16f#Q	.	.	.	.	.	.	.	.	.	.	.	.	.
8DD	8D	8D	8A	8g	.	.	.	.	.	.	.	.	.	.	.	.	.
8DD'	8D'	8D'	8c	16a	.	.	.	.	.	.	.	.	.	.	.	.	.
.	.	.	.	16f#	.	.	.	.	.	.	.	.	.	.	.	.	.
=33	=33	=33	=33	=33	=33	=33	=33	=33	=33	=33	=33	=33	=33	=33	=33	=33	=33
[2GGG	[2GG	8D	8B	4.g	2ryy	2ryy	2ryy	2ryy	2ryy	2ryy	8G	2ryy	2ryy	2ryy	2ryy	2ryy	2ryy
.	.	8B	8d	.	.	.	.	.	.	.	8B	.	.	.	.	.	.
.	.	8d	8B	.	.	.	.	.	.	.	8d	.	.	.	.	.	.
.	.	8B	8d	16b	.	.	.	.	.	.	8B	.	.	.	.	.	.
.	.	.	.	16dd	.	.	.	.	.	.	.	.	.	.	.	.	.
=34	=34	=34	=34	=34	=34	=34	=34	=34	=34	=34	=34	=34	=34	=34	=34	=34	=34
2GGG_	2GG_	2c	4e	16dd	2ryy	2ryy	2ryy	2ryy	2ryy	2ryy	2c	2ryy	2ryy	2ryy	2ryy	2ryy	2ryy
.	.	.	.	16cc	.	.	.	.	.	.	.	.	.	.	.	.	.
.	.	.	.	16cc	.	.	.	.	.	.	.	.	.	.	.	.	.
.	.	.	.	16b	.	.	.	.	.	.	.	.	.	.	.	.	.
.	.	.	4f#	16b	.	.	.	.	.	.	.	.	.	.	.	.	.
.	.	.	.	16a	.	.	.	.	.	.	.	.	.	.	.	.	.
.	.	.	.	16a	.	.	.	.	.	.	.	.	.	.	.	.	.
.	.	.	.	16g	.	.	.	.	.	.	.	.	.	.	.	.	.
=35	=35	=35	=35	=35	=35	=35	=35	=35	=35	=35	=35	=35	=35	=35	=35	=35	=35
2GGG_	2GG_	4B	8g	4.g	2ryy	2ryy	2ryy	2ryy	2ryy	2ryy	4B	2ryy	2ryy	2ryy	2ryy	2ryy	2ryy
.	.	.	8d	.	.	.	.	.	.	.	.	.	.	.	.	.	.
.	.	8d	8B	.	.	.	.	.	.	.	8d	.	.	.	.	.	.
.	.	8B	8d	16b	.	.	.	.	.	.	8B	.	.	.	.	.	.
.	.	.	.	16dd	.	.	.	.	.	.	.	.	.	.	.	.	.
=36	=36	=36	=36	=36	=36	=36	=36	=36	=36	=36	=36	=36	=36	=36	=36	=36	=36
2GGG]	2GG]	2c	4e	16dd	2ryy	2ryy	2ryy	2ryy	2ryy	2ryy	2c	2ryy	2ryy	2ryy	2ryy	2ryy	2ryy
.	.	.	.	16cc	.	.	.	.	.	.	.	.	.	.	.	.	.
.	.	.	.	16cc	.	.	.	.	.	.	.	.	.	.	.	.	.
.	.	.	.	16b	.	.	.	.	.	.	.	.	.	.	.	.	.
.	.	.	4f#	16b	.	.	.	.	.	.	.	.	.	.	.	.	.
.	.	.	.	16a	.	.	.	.	.	.	.	.	.	.	.	.	.
.	.	.	.	16a	.	.	.	.	.	.	.	.	.	.	.	.	.
.	.	.	.	16g	.	.	.	.	.	.	.	.	.	.	.	.	.
=37	=37	=37	=37	=37	=37	=37	=37	=37	=37	=37	=37	=37	=37	=37	=37	=37	=37
16GG	16G	4B	4g	4g	2ryy	2ryy	2ryy	2ryy	2ryy	2ryy	4B	2ryy	2ryy	2ryy	2ryy	2ryy	2ryy
16DD	16D	.	.	.	.	.	.	.	.	.	.	.	.	.	.	.	.
16DD	16D	.	.	.	.	.	.	.	.	.	.	.	.	.	.	.	.
16BBB	16BB	.	.	.	.	.	.	.	.	.	.	.	.	.	.	.	.
8GGG	8GG	4r	4r	4r	.	.	.	.	.	.	4r	.	.	.	.	.	.
8r	8r	.	.	.	.	.	.	.	.	.	.	.	.	.	.	.	.
=38:|	=38:|	=38:|	=38:|	=38:|	=38:|	=38:|	=38:|	=38:|	=38:|	=38:|	=38:|	=38:|	=38:|	=38:|	=38:|	=38:|	=38:|
*>C	*>C	*>C	*>C	*>C	*>C	*>C	*>C	*>C	*>C	*>C	*>C	*>C	*>C	*>C	*>C	*>C	*>C
*staff:12	*staff:12	*staff:13	*staff:14	*staff:15	*staff:16	*staff:17	*staff:17	*staff:18	*staff:18	*	*staff:19	*staff:20	*staff:20	*staff:21	*staff:21	*	*staff:22
*k[b-e-]	*k[b-e-]	*k[b-e-]	*k[b-e-]	*k[b-e-]	*	*	*	*	*	*	*k[b-e-]	*	*	*k[b-e-]	*k[b-e-]	*	*k[b-e-]
2r	2r	2r	2r	2r	2r	2r	2r	2r	2r	2ryy	4G	2r	2r	[2dd	2r	2ryy	8..bb-X
.	.	.	.	.	.	.	.	.	.	.	.	.	.	.	.	.	32ccc
.	.	.	.	.	.	.	.	.	.	.	4d	.	.	.	.	.	8aa'
.	.	.	.	.	.	.	.	.	.	.	.	.	.	.	.	.	8ddd'
=39	=39	=39	=39	=39	=39	=39	=39	=39	=39	=39	=39	=39	=39	=39	=39	=39	=39
2r	2r	2r	2r	2r	2r	2r	2r	2r	2r	2ryy	4.e-X	2r	2r	8dd]	4r	2ryy	4.gg
.	.	.	.	.	.	.	.	.	.	.	.	.	.	8g	.	.	.
.	.	.	.	.	.	.	.	.	.	.	.	.	.	[4cc	8r	.	.
.	.	.	.	.	.	.	.	.	.	.	8c	.	.	.	8ggz	.	8eee-z
=40	=40	=40	=40	=40	=40	=40	=40	=40	=40	=40	=40	=40	=40	=40	=40	=40	=40
2r	2r	2r	2r	2r	2r	2r	2r	2r	2r	2ryy	[2d	2r	2r	8cc]	8ee-X	2ryy	8ff#
.	.	.	.	.	.	.	.	.	.	.	.	.	.	8b-'	8dd'	.	8gg'
.	.	.	.	.	.	.	.	.	.	.	.	.	.	8f#'	8cc'	.	8aa'
.	.	.	.	.	.	.	.	.	.	.	.	.	.	8g'	8cc#'	.	8bb-'
=41	=41	=41	=41	=41	=41	=41	=41	=41	=41	=41	=41	=41	=41	=41	=41	=41	=41
2r	2r	2r	2r	2r	2r	2r	2r	2r	2r	2ryy	4.d]	2r	2r	4g	4cc#	2ryy	4bb-
.	.	.	.	.	.	.	.	.	.	.	.	.	.	8f#	8dd	.	8aa
.	.	.	.	.	.	.	.	.	.	.	8r	.	.	96ryy	8r	.	8r
.	.	.	.	.	.	.	.	.	.	.	.	.	.	96ryy	.	.	.
.	.	.	.	.	.	.	.	.	.	.	.	.	.	96ryy	.	.	.
.	.	.	.	.	.	.	.	.	.	.	.	.	.	96ryy	.	.	.
.	.	.	.	.	.	.	.	.	.	.	.	.	.	96ryy	.	.	.
.	.	.	.	.	.	.	.	.	.	.	.	.	.	96ryy	.	.	.
.	.	.	.	.	.	.	.	.	.	.	.	.	.	96ryy	.	.	.
.	.	.	.	.	.	.	.	.	.	.	.	.	.	96ryy	.	.	.
.	.	.	.	.	.	.	.	.	.	.	.	.	.	96ryy	.	.	.
.	.	.	.	.	.	.	.	.	.	.	.	.	.	96ryy	.	.	.
.	.	.	.	.	.	.	.	.	.	.	.	.	.	96ryy	.	.	.
.	.	.	.	.	.	.	.	.	.	.	.	.	.	96ryy	.	.	.
!!WARNING: This measure contained too few data records
*	*	*	*	*	*	*	*	*	*	*	*clefC4	*	*	*	*	*	*
=42	=42	=42	=42	=42	=42	=42	=42	=42	=42	=42	=42	=42	=42	=42	=42	=42	=42
*	*	*	*	*	*	*	*	*	*	*staff:19	*	*	*	*	*	*staff:22	*
*	*	*	*	*	*	*	*	*	*	*clefC4	*	*	*	*	*	*k[b-e-]	*
*	*	*	*	*	*	*	*	*	*	*k[b-e-]	*	*	*	*	*	*	*
16DD'	16D'	16D'	2A 2fn	8.aa	4D	2d	2dd	2d	2d	2d	2d	2dd	2dd	2ffn	2aa	2ffn	2ffn
16AA'	16A'	16fn'	.	.	.	.	.	.	.	.	.	.	.	.	.	.	.
16FF'	16Fn'	16d'	.	.	.	.	.	.	.	.	.	.	.	.	.	.	.
16D'	16d'	16f'	.	32ffn	.	.	.	.	.	.	.	.	.	.	.	.	.
.	.	.	.	32gg	.	.	.	.	.	.	.	.	.	.	.	.	.
16DD'	16D'	16D'	.	8aa	8D	.	.	.	.	.	.	.	.	.	.	.	.
16AA'	16A'	16f'	.	.	.	.	.	.	.	.	.	.	.	.	.	.	.
16FF'	16F'	16d'	.	8d	8D	.	.	.	.	.	.	.	.	.	.	.	.
16D'	16d'	16f'	.	.	.	.	.	.	.	.	.	.	.	.	.	.	.
=43	=43	=43	=43	=43	=43	=43	=43	=43	=43	=43	=43	=43	=43	=43	=43	=43	=43
2AA	2A	8.en	16en'	4d	4AA	2a	2ee	2a	2a	4d	2en	4dd	2ee	8.bb-	8.bb-	8.bb-	8.bb-
.	.	.	16b-X'	.	.	.	.	.	.	.	.	.	.	.	.	.	.
.	.	.	16g'	.	.	.	.	.	.	.	.	.	.	.	.	.	.
.	.	32g	16een'	.	.	.	.	.	.	.	.	.	.	32bb-	32bb-	32bb-	32bb-
.	.	32a	.	.	.	.	.	.	.	.	.	.	.	32aa	32aa	32aa	32aa
.	.	8b-'	16e'	4c#	8AA	.	.	.	.	4c#	.	4cc#	.	16gg'	16gg'	16gg'	16gg'
.	.	.	16b-'	.	.	.	.	.	.	.	.	.	.	32gg	32gg	32gg	32gg
.	.	.	.	.	.	.	.	.	.	.	.	.	.	32ff	32ff	32ff	32ff
.	.	8b-'	16g'	.	8AA	.	.	.	.	.	.	.	.	16ee'	16een'	16een'	16een'
.	.	.	16ee'	.	.	.	.	.	.	.	.	.	.	32ee	32ee	32ee	32ee
.	.	.	.	.	.	.	.	.	.	.	.	.	.	32dd	32dd	32dd	32dd
=44	=44	=44	=44	=44	=44	=44	=44	=44	=44	=44	=44	=44	=44	=44	=44	=44	=44
16AAA	16AA	16A	2A 2g	8.eeen	16AA	2a	2ee	2a	2a	2c#	2en	2cc#	2ee	8cc#	16cc#X	8cc#	8cc#
16EE	16En	16en	.	.	16AA	.	.	.	.	.	.	.	.	.	16een	.	.
16CC#	16C#	16c#	.	.	16AA	.	.	.	.	.	.	.	.	4een	4gg	4ccc#X	4ccc#X
16AA	16A	16e	.	32ccc#	16AA	.	.	.	.	.	.	.	.	.	.	.	.
.	.	.	.	32ddd	.	.	.	.	.	.	.	.	.	.	.	.	.
16AAA	16AA	16A	.	8eee	16AA	.	.	.	.	.	.	.	.	.	.	.	.
16EE	16E	16e	.	.	16AA	.	.	.	.	.	.	.	.	.	.	.	.
16CC#	16C#	16c#	.	16A	16AA	.	.	.	.	.	.	.	.	8ee	8gg	8ccc#	8ccc#
16AA	16A	16e	.	16g	16AA	.	.	.	.	.	.	.	.	.	.	.	.
=45	=45	=45	=45	=45	=45	=45	=45	=45	=45	=45	=45	=45	=45	=45	=45	=45	=45
*staff:1	*staff:1	*staff:2	*staff:3	*staff:4	*staff:5	*staff:6	*staff:6	*staff:7	*staff:7	*staff:8	*staff:8	*staff:9	*staff:9	*staff:10	*staff:10	*staff:11	*staff:11
2DD	2D	16A	16A	4g	4D	2d	2dd	2d	2d	4en	4g	4ee	4gg	8.dd	8.ddd	8.ddd	8.ddd
.	.	16en	16en	.	.	.	.	.	.	.	.	.	.	.	.	.	.
.	.	16A	16A	.	.	.	.	.	.	.	.	.	.	.	.	.	.
.	.	16a	16a	.	.	.	.	.	.	.	.	.	.	32aa	32aa	32aa	32aa
.	.	.	.	.	.	.	.	.	.	.	.	.	.	32gg	32gg	32gg	32gg
.	.	16A	16A	4f	4r	.	.	.	.	4d	4f	4dd	4ff	16ff'	16ff'	16ff'	16ff'
.	.	16f	16f	.	.	.	.	.	.	.	.	.	.	32aa	32aa	32aa	32aa
.	.	.	.	.	.	.	.	.	.	.	.	.	.	32gg	32gg	32gg	32gg
.	.	16d	16d	.	.	.	.	.	.	.	.	.	.	16ff'	16ff'	16ff'	16ff'
.	.	16a	16a	.	.	.	.	.	.	.	.	.	.	32ff	32ff	32ff	32ff
.	.	.	.	.	.	.	.	.	.	.	.	.	.	32ee	32een	32een	32een
=46	=46	=46	=46	=46	=46	=46	=46	=46	=46	=46	=46	=46	=46	=46	=46	=46	=46
16DD	16D	16d	16f	8.ffz	2r	2r	2r	2r	2r	2f	2f	2r	2r	4dd	4dd	8dd	8dd
16BB-	16B-	16b-	16dd	.	.	.	.	.	.	.	.	.	.	.	.	.	.
16FF	16F	16f	16b-	.	.	.	.	.	.	.	.	.	.	.	.	8ff	8ff
16D	16d	16dd	16ff	32gg	.	.	.	.	.	.	.	.	.	.	.	.	.
.	.	.	.	32aa	.	.	.	.	.	.	.	.	.	.	.	.	.
16DD	16D	16d	16f	8.bb-z	.	.	.	.	.	.	.	.	.	4ff	[4bb-	8.bb-	8.bb-
16BB-	16B-	16b-	16dd	.	.	.	.	.	.	.	.	.	.	.	.	.	.
16FF	16F	16f	16b-	.	.	.	.	.	.	.	.	.	.	.	.	.	.
16D	16d	16dd	16ff	32ccc	.	.	.	.	.	.	.	.	.	.	.	32ccc	32ccc
.	.	.	.	32ddd	.	.	.	.	.	.	.	.	.	.	.	32ddd	32ddd
=47	=47	=47	=47	=47	=47	=47	=47	=47	=47	=47	=47	=47	=47	=47	=47	=47	=47
16CC	16C	16c	16e-X	[8eee-Xz	2r	2r	2r	2r	2r	4g	4g	2r	2r	4ee-X	4bb-]	2eee-X	2eee-X
16GG	16G	16g	16b-	.	.	.	.	.	.	.	.	.	.	.	.	.	.
16EE-X	16E-X	16e-X	16g	32eee-]	.	.	.	.	.	.	.	.	.	.	.	.	.
.	.	.	.	32ddd	.	.	.	.	.	.	.	.	.	.	.	.	.
16C	16c	16cc	16ee-X	32ccc	.	.	.	.	.	.	.	.	.	.	.	.	.
.	.	.	.	32bb-	.	.	.	.	.	.	.	.	.	.	.	.	.
16FF	16F	16f	16f	8aa	.	.	.	.	.	4f	4f	.	.	4cc	4aa	.	.
16C	16c	16cc	16ee-	.	.	.	.	.	.	.	.	.	.	.	.	.	.
16AA	16A	16a	16cc	16ccc	.	.	.	.	.	.	.	.	.	.	.	.	.
16F	16f	16ff	16ee-	16ee-X	.	.	.	.	.	.	.	.	.	.	.	.	.
*	*	*	*	*	*	*	*	*	*	*clefF4	*clefF4	*	*	*	*	*	*
=48	=48	=48	=48	=48	=48	=48	=48	=48	=48	=48	=48	=48	=48	=48	=48	=48	=48
16BB-	16B-	16b-	32dd	32dd	2r	2r	2r	2r	2r	16B-	16B-	2r	2r	16dd	16bb-	16ddd	16ddd
.	.	.	32ff	32ff	.	.	.	.	.	.	.	.	.	.	.	.	.
16D	16d	16dd	32gg	32gg	.	.	.	.	.	16d	16d	.	.	8gg	8gg	8gg	8gg
.	.	.	32ff	32ff	.	.	.	.	.	.	.	.	.	.	.	.	.
16AA	16A	16a	32gg	32gg	.	.	.	.	.	16A	16A	.	.	.	.	.	.
.	.	.	32ff	32ff	.	.	.	.	.	.	.	.	.	.	.	.	.
16C	16c	16cc	32gg	32gg	.	.	.	.	.	16c	16c	.	.	16ff	16ff	16ff	16ff
.	.	.	32ff	32ff	.	.	.	.	.	.	.	.	.	.	.	.	.
16GG	16G	16g	32b-	32b-	.	.	.	.	.	16G	16G	.	.	8ee-	16r	16r	16r
.	.	.	32dd	32dd	.	.	.	.	.	.	.	.	.	.	.	.	.
16BB-	16B-	16b-	32ee-	32ee-	.	.	.	.	.	16B-	16B-	.	.	.	8ee-	8ee-	8ee-
.	.	.	32dd	32dd	.	.	.	.	.	.	.	.	.	.	.	.	.
16FF	16F	16f	32ee-	32ee-	.	.	.	.	.	16F	16F	.	.	16dd	.	.	.
.	.	.	32dd	32dd	.	.	.	.	.	.	.	.	.	.	.	.	.
16AA	16A	16a	32ee-	32ee-	.	.	.	.	.	16A	16A	.	.	96ryy	16dd	16dd	16dd
.	.	.	.	.	.	.	.	.	.	.	.	.	.	96ryy	.	.	.
.	.	.	.	.	.	.	.	.	.	.	.	.	.	96ryy	.	.	.
.	.	.	32dd	32dd	.	.	.	.	.	.	.	.	.	96ryy	.	.	.
.	.	.	.	.	.	.	.	.	.	.	.	.	.	96ryy	.	.	.
.	.	.	.	.	.	.	.	.	.	.	.	.	.	96ryy	.	.	.
!!WARNING: This measure contained too few data records
=49	=49	=49	=49	=49	=49	=49	=49	=49	=49	=49	=49	=49	=49	=49	=49	=49	=49
16EE-	16E-	16e-	32g	32g	2r	2r	2r	2r	2r	16E-	16E-	2r	2r	8cc	16r	16r	16r
.	.	.	32b-	32b-	.	.	.	.	.	.	.	.	.	.	.	.	.
16GG	16G	16g	32cc	32cc	.	.	.	.	.	16G	16G	.	.	.	8cc	8cc	8cc
.	.	.	32b-	32b-	.	.	.	.	.	.	.	.	.	.	.	.	.
16DD	16D	16d	32cc	32cc	.	.	.	.	.	16D	16D	.	.	16b-	.	.	.
.	.	.	32b-	32b-	.	.	.	.	.	.	.	.	.	.	.	.	.
16FF	16F	16f	32cc	32cc	.	.	.	.	.	16F	16F	.	.	16a	16b-	16b-	16b-
.	.	.	32b-	32b-	.	.	.	.	.	.	.	.	.	.	.	.	.
16CC	16C	16c	32a	32a	.	.	.	.	.	16C	16C	.	.	16ee-	16a	16a	16a
.	.	.	32ee-	32ee-	.	.	.	.	.	.	.	.	.	.	.	.	.
16C	16c	16c	32ee-'	32ee-'	.	.	.	.	.	16C	16C	.	.	16ee-	16ee-	16ee-	16ee-
.	.	.	32ee-'	32ee-'	.	.	.	.	.	.	.	.	.	.	.	.	.
16BBB-	16BB-	16g	32g	32g	.	.	.	.	.	16c	16c	.	.	16ee-	16ee-	16ee-	16ee-
.	.	.	32ee-	32ee-	.	.	.	.	.	.	.	.	.	.	.	.	.
16BB-	16B-	16g	32ee-'	32ee-'	.	.	.	.	.	16c	16c	.	.	96ryy	16ee-	16ee-	16ee-
.	.	.	.	.	.	.	.	.	.	.	.	.	.	96ryy	.	.	.
.	.	.	.	.	.	.	.	.	.	.	.	.	.	96ryy	.	.	.
.	.	.	32ee-'	32ee-'	.	.	.	.	.	.	.	.	.	96ryy	.	.	.
.	.	.	.	.	.	.	.	.	.	.	.	.	.	96ryy	.	.	.
.	.	.	.	.	.	.	.	.	.	.	.	.	.	96ryy	.	.	.
!!WARNING: This measure contained too few data records
=50	=50	=50	=50	=50	=50	=50	=50	=50	=50	=50	=50	=50	=50	=50	=50	=50	=50
*staff:8	*staff:8	*staff:9	*staff:10	*staff:11	*	*	*	*	*	*staff:12	*staff:12	*	*	*staff:13	*staff:13	*staff:14	*staff:14
16AAA	16AA	16f	32f	32f	2ryy	2ryy	2ryy	2ryy	2ryy	2c	2e-	2ryy	2ryy	2f	2ee-	2ccc	2ccc
.	.	.	32g	32g	.	.	.	.	.	.	.	.	.	.	.	.	.
16AAA	16AA	16f 16cc	32a'	32a'	.	.	.	.	.	.	.	.	.	.	.	.	.
.	.	.	32b-'	32b-'	.	.	.	.	.	.	.	.	.	.	.	.	.
16AAA	16AA	16f 16cc	32a	32a	.	.	.	.	.	.	.	.	.	.	.	.	.
.	.	.	32b-	32b-	.	.	.	.	.	.	.	.	.	.	.	.	.
16AAA	16AA	16f 16cc	32cc'	32cc'	.	.	.	.	.	.	.	.	.	.	.	.	.
.	.	.	32dd'	32dd'	.	.	.	.	.	.	.	.	.	.	.	.	.
16AAA	16AA	16f 16cc	32ee-'	32ee-'	.	.	.	.	.	.	.	.	.	.	.	.	.
.	.	.	32dd'	32dd'	.	.	.	.	.	.	.	.	.	.	.	.	.
16AAA	16AA	16f 16cc	32cc'	32cc'	.	.	.	.	.	.	.	.	.	.	.	.	.
.	.	.	32b-'	32b-'	.	.	.	.	.	.	.	.	.	.	.	.	.
16AAA	16AA	16f 16cc	32a'	32a'	.	.	.	.	.	.	.	.	.	.	.	.	.
.	.	.	32g'	32g'	.	.	.	.	.	.	.	.	.	.	.	.	.
16AAA	16AA	16f 16cc	32f'	32f'	.	.	.	.	.	.	.	.	.	.	.	.	.
.	.	.	32e-'	32e-'	.	.	.	.	.	.	.	.	.	.	.	.	.
=51	=51	=51	=51	=51	=51	=51	=51	=51	=51	=51	=51	=51	=51	=51	=51	=51	=51
16BBB-	16BB-	16f 16dd	32d	32d	2ryy	2ryy	2ryy	2ryy	2ryy	4B-	4d	2ryy	2ryy	4dd	4dd	[2bb-	[2bb-
.	.	.	32b-	32b-	.	.	.	.	.	.	.	.	.	.	.	.	.
16BBB-	16BB-	16f 16dd	32dd	32dd	.	.	.	.	.	.	.	.	.	.	.	.	.
.	.	.	32b-	32b-	.	.	.	.	.	.	.	.	.	.	.	.	.
16BBB-	16BB-	16f 16dd	32dd	32dd	.	.	.	.	.	.	.	.	.	.	.	.	.
.	.	.	32b-	32b-	.	.	.	.	.	.	.	.	.	.	.	.	.
16BBB-	16BB-	16f 16dd	32dd	32dd	.	.	.	.	.	.	.	.	.	.	.	.	.
.	.	.	32b-	32b-	.	.	.	.	.	.	.	.	.	.	.	.	.
16GG	16G	16b-	32e-	32e-	.	.	.	.	.	4B-	4B-	.	.	4ee-	4ee-	.	.
.	.	.	32b-	32b-	.	.	.	.	.	.	.	.	.	.	.	.	.
16GG	16G	16b-	32ee-	32ee-	.	.	.	.	.	.	.	.	.	.	.	.	.
.	.	.	32b-	32b-	.	.	.	.	.	.	.	.	.	.	.	.	.
16GG	16G	16b-	32ee-	32ee-	.	.	.	.	.	.	.	.	.	.	.	.	.
.	.	.	32b-	32b-	.	.	.	.	.	.	.	.	.	.	.	.	.
16GG	16G	16b-	32ee-	32ee-	.	.	.	.	.	.	.	.	.	.	.	.	.
.	.	.	32b-	32b-	.	.	.	.	.	.	.	.	.	.	.	.	.
=52	=52	=52	=52	=52	=52	=52	=52	=52	=52	=52	=52	=52	=52	=52	=52	=52	=52
16DD	16D	16b-	32d	32d	2ryy	2ryy	2ryy	2ryy	2ryy	2B-	2B-	2ryy	2ryy	4ff	4ff	2bb-]	2bb-]
.	.	.	32b-	32b-	.	.	.	.	.	.	.	.	.	.	.	.	.
16DD	16D	16b-	32ff	32ff	.	.	.	.	.	.	.	.	.	.	.	.	.
.	.	.	32b-	32b-	.	.	.	.	.	.	.	.	.	.	.	.	.
16DD	16D	16b-	32ff	32ff	.	.	.	.	.	.	.	.	.	.	.	.	.
.	.	.	32b-	32b-	.	.	.	.	.	.	.	.	.	.	.	.	.
16DD	16D	16b-	32ff	32ff	.	.	.	.	.	.	.	.	.	.	.	.	.
.	.	.	32b-	32b-	.	.	.	.	.	.	.	.	.	.	.	.	.
16EE-	16E-	16b-	32gg	32gg	.	.	.	.	.	.	.	.	.	8gg	8gg	.	.
.	.	.	32b-	32b-	.	.	.	.	.	.	.	.	.	.	.	.	.
16EE-	16E-	16b-	32gg	32gg	.	.	.	.	.	.	.	.	.	.	.	.	.
.	.	.	32b-	32b-	.	.	.	.	.	.	.	.	.	.	.	.	.
16DD	16D	16b-	32aa-	32aa-	.	.	.	.	.	.	.	.	.	8ff	8aa-	.	.
.	.	.	32b-	32b-	.	.	.	.	.	.	.	.	.	.	.	.	.
16DD	16D	16b-	32aa-	32aa-	.	.	.	.	.	.	.	.	.	.	.	.	.
.	.	.	32b-	32b-	.	.	.	.	.	.	.	.	.	.	.	.	.
=53	=53	=53	=53	=53	=53	=53	=53	=53	=53	=53	=53	=53	=53	=53	=53	=53	=53
16EE-	16E-	16b-	32e-	32e-	2ryy	2ryy	2ryy	2ryy	2ryy	2E-	2E-	2ryy	2ryy	4gg	4gg	4bb-	4bb-
.	.	.	32b-	32b-	.	.	.	.	.	.	.	.	.	.	.	.	.
16EE-	16E-	16b-	32gg	32gg	.	.	.	.	.	.	.	.	.	.	.	.	.
.	.	.	32b-	32b-	.	.	.	.	.	.	.	.	.	.	.	.	.
16EE-	16E-	16b-	32e-	32e-	.	.	.	.	.	.	.	.	.	.	.	.	.
.	.	.	32b-	32b-	.	.	.	.	.	.	.	.	.	.	.	.	.
16EE-	16E-	16b-	32gg	32gg	.	.	.	.	.	.	.	.	.	.	.	.	.
.	.	.	32b-	32b-	.	.	.	.	.	.	.	.	.	.	.	.	.
16EE-	16E-	16cc	32e-	32e-	.	.	.	.	.	.	.	.	.	4cc	4aan	4ff	4ff
.	.	.	32cc	32cc	.	.	.	.	.	.	.	.	.	.	.	.	.
16EE-	16E-	16cc	32aan	32aan	.	.	.	.	.	.	.	.	.	.	.	.	.
.	.	.	32cc	32cc	.	.	.	.	.	.	.	.	.	.	.	.	.
16EE-	16E-	16cc	32e-	32e-	.	.	.	.	.	.	.	.	.	.	.	.	.
.	.	.	32cc	32cc	.	.	.	.	.	.	.	.	.	.	.	.	.
16EE-	16E-	16cc	32aa	32aa	.	.	.	.	.	.	.	.	.	.	.	.	.
.	.	.	32cc	32cc	.	.	.	.	.	.	.	.	.	.	.	.	.
=54	=54	=54	=54	=54	=54	=54	=54	=54	=54	=54	=54	=54	=54	=54	=54	=54	=54
*staff:1	*staff:1	*staff:2	*staff:3	*staff:4	*	*	*	*	*	*staff:5	*staff:5	*	*	*staff:6	*staff:6	*staff:7	*staff:7
16DD	16D	16f	32d	32d	2ryy	2ryy	2ryy	2ryy	2ryy	8D	8D	2ryy	2ryy	4b-	8bb-	8fff	8fff
.	.	.	32b-	32b-	.	.	.	.	.	.	.	.	.	.	.	.	.
16DD	16D	16f	32bb-	32bb-	.	.	.	.	.	.	.	.	.	.	.	.	.
.	.	.	32b-	32b-	.	.	.	.	.	.	.	.	.	.	.	.	.
16EE-	16E-	16b-	32e-	32e-	.	.	.	.	.	8E-	8E-	.	.	.	8gg	8eee-	8eee-
.	.	.	32b-	32b-	.	.	.	.	.	.	.	.	.	.	.	.	.
16EE-	16E-	16b-	32gg	32gg	.	.	.	.	.	.	.	.	.	.	.	.	.
.	.	.	32b-	32b-	.	.	.	.	.	.	.	.	.	.	.	.	.
16FF	16F	16b-	32f	32f	.	.	.	.	.	8F	8F	.	.	8dd	8ff	8ddd	8ddd
.	.	.	32dd	32dd	.	.	.	.	.	.	.	.	.	.	.	.	.
16FF	16F	16b-	32ff	32ff	.	.	.	.	.	.	.	.	.	.	.	.	.
.	.	.	32dd	32dd	.	.	.	.	.	.	.	.	.	.	.	.	.
16EE-	16E-	16f	32f	32f	.	.	.	.	.	8E-	8E-	.	.	8cc	8aa	8ccc	8ccc
.	.	.	32cc	32cc	.	.	.	.	.	.	.	.	.	.	.	.	.
16EE-	16E-	16f	32aa	32aa	.	.	.	.	.	.	.	.	.	.	.	.	.
.	.	.	32cc	32cc	.	.	.	.	.	.	.	.	.	.	.	.	.
=55	=55	=55	=55	=55	=55	=55	=55	=55	=55	=55	=55	=55	=55	=55	=55	=55	=55
16DD	16D	16f	32d	32d	2ryy	2ryy	2ryy	2ryy	2ryy	8D	8D	2ryy	2ryy	4b-	8bb-	8fff	8fff
.	.	.	32b-	32b-	.	.	.	.	.	.	.	.	.	.	.	.	.
16DD	16D	16f	32bb-	32bb-	.	.	.	.	.	.	.	.	.	.	.	.	.
.	.	.	32b-	32b-	.	.	.	.	.	.	.	.	.	.	.	.	.
16EE-	16E-	16b-	32e-	32e-	.	.	.	.	.	8E-	8E-	.	.	.	8gg	8eee-	8eee-
.	.	.	32b-	32b-	.	.	.	.	.	.	.	.	.	.	.	.	.
16EE-	16E-	16b-	32gg	32gg	.	.	.	.	.	.	.	.	.	.	.	.	.
.	.	.	32b-	32b-	.	.	.	.	.	.	.	.	.	.	.	.	.
16FF	16F	16b-	32f	32f	.	.	.	.	.	8F	8F	.	.	8dd	8ff	8ddd	8ddd
.	.	.	32dd	32dd	.	.	.	.	.	.	.	.	.	.	.	.	.
16FF	16F	16b-	32ff	32ff	.	.	.	.	.	.	.	.	.	.	.	.	.
.	.	.	32dd	32dd	.	.	.	.	.	.	.	.	.	.	.	.	.
16FF	16F	16e-	32f	32f	.	.	.	.	.	8FF	8FF	.	.	8cc	8aa	8ccc	8ccc
.	.	.	32cc	32cc	.	.	.	.	.	.	.	.	.	.	.	.	.
16FF	16F	16e-	32aa	32aa	.	.	.	.	.	.	.	.	.	.	.	.	.
.	.	.	32cc	32cc	.	.	.	.	.	.	.	.	.	.	.	.	.
=56	=56	=56	=56	=56	=56	=56	=56	=56	=56	=56	=56	=56	=56	=56	=56	=56	=56
2r	2r	2r	2r	2r	2ryy	2ryy	2ryy	2ryy	2ryy	2r	2r	2ryy	2ryy	2r	2r	2r	2r
=57	=57	=57	=57	=57	=57	=57	=57	=57	=57	=57	=57	=57	=57	=57	=57	=57	=57
4BB-	4B-	4B-	[2f	8..dd	2ryy	2ryy	2ryy	2ryy	2ryy	2r	2r	2ryy	2ryy	2r	2r	2r	2r
.	.	.	.	32ee-	.	.	.	.	.	.	.	.	.	.	.	.	.
4AA	4A	4A	.	8cc'	.	.	.	.	.	.	.	.	.	.	.	.	.
.	.	.	.	8ff'	.	.	.	.	.	.	.	.	.	.	.	.	.
=58	=58	=58	=58	=58	=58	=58	=58	=58	=58	=58	=58	=58	=58	=58	=58	=58	=58
2GG	2G	2G	8f]	8b-	2ryy	2ryy	2ryy	2ryy	2ryy	2r	2r	2ryy	2ryy	2r	2r	2r	2r
.	.	.	8B-	8r	.	.	.	.	.	.	.	.	.	.	.	.	.
.	.	.	[4e-z	8r	.	.	.	.	.	.	.	.	.	.	.	.	.
.	.	.	.	8ggz	.	.	.	.	.	.	.	.	.	.	.	.	.
=59	=59	=59	=59	=59	=59	=59	=59	=59	=59	=59	=59	=59	=59	=59	=59	=59	=59
8GG-	8G-	8G-	8e-]	8a	2ryy	2ryy	2ryy	2ryy	2ryy	2r	2r	2ryy	2ryy	2r	2r	2r	2r
8FF	8F	8F	8d	8b-	.	.	.	.	.	.	.	.	.	.	.	.	.
8EE-	8E-	8E-	8c	8cc	.	.	.	.	.	.	.	.	.	.	.	.	.
8FF	8F	8F	8e-	8a	.	.	.	.	.	.	.	.	.	.	.	.	.
=60	=60	=60	=60	=60	=60	=60	=60	=60	=60	=60	=60	=60	=60	=60	=60	=60	=60
*staff:12	*staff:12	*staff:13	*staff:14	*staff:15	*staff:16	*staff:17	*staff:17	*staff:18	*staff:18	*staff:19	*staff:19	*	*	*staff:20	*staff:20	*staff:21	*staff:21
.	.	.	.	16b-Q	.	.	.	.	.	.	.	.	.	.	.	.	.
16BBB-	16BB-	2B-	4B- 4d	8..ff	4D	4d	4dd	4D	4d	2B-	2B-	2ryy	2ryy	2dd	8..ff	4.dd	4.dd
16FF	16F	.	.	.	.	.	.	.	.	.	.	.	.	.	.	.	.
16BB-	16B-	.	.	.	.	.	.	.	.	.	.	.	.	.	.	.	.
16FF	16F	.	.	.	.	.	.	.	.	.	.	.	.	.	.	.	.
.	.	.	.	32gg	.	.	.	.	.	.	.	.	.	.	32gg	.	.
16BB-	16B-	.	4r	8ff'	4r	4ryy	4r	4ryy	4r	.	.	.	.	.	8ff'	.	.
16FF	16F	.	.	.	.	.	.	.	.	.	.	.	.	.	.	.	.
16DD	16D	.	.	8bb-'	.	.	.	.	.	.	.	.	.	.	8bb-'	8b-	8b-
16BBB-	16BB-	.	.	.	.	.	.	.	.	.	.	.	.	.	.	.	.
=61	=61	=61	=61	=61	=61	=61	=61	=61	=61	=61	=61	=61	=61	=61	=61	=61	=61
4FFF	16F	16F	8..ccz	4bb-	2r	2r	2r	2r	2r	16F	16F	2ryy	2ryy	8..cc	4bb-	16f	16f
.	16c	16c	.	.	.	.	.	.	.	16c	16c	.	.	.	.	16cc	16cc
.	16f	16f	.	.	.	.	.	.	.	16f	16f	.	.	.	.	16ff	16ff
.	16c	16c	.	.	.	.	.	.	.	16c	16c	.	.	.	.	16cc	16cc
.	.	.	32dd	.	.	.	.	.	.	.	.	.	.	32dd	.	.	.
4r	16f	16f	8cc'	4aa	.	.	.	.	.	16f	16f	.	.	8cc'	4aa	16ff	16ff
.	16c	16c	.	.	.	.	.	.	.	16c	16c	.	.	.	.	16cc	16cc
.	16A	16A	8ff'	.	.	.	.	.	.	16A	16A	.	.	8ff'	.	16a	16a
.	16F	16F	.	.	.	.	.	.	.	16F	16F	.	.	.	.	16f	16f
=62	=62	=62	=62	=62	=62	=62	=62	=62	=62	=62	=62	=62	=62	=62	=62	=62	=62
16CC	16C	2C	4ff	8..gg	2r	2r	2r	2r	2r	2C	2C	2ryy	2ryy	4ff	8..gg	4cc	4cc
16GG	16G	.	.	.	.	.	.	.	.	.	.	.	.	.	.	.	.
16C	16c	.	.	.	.	.	.	.	.	.	.	.	.	.	.	.	.
16GG	16G	.	.	.	.	.	.	.	.	.	.	.	.	.	.	.	.
.	.	.	.	32aa-	.	.	.	.	.	.	.	.	.	.	32aa-	.	.
16C	16c	.	4ee-	8gg'	.	.	.	.	.	.	.	.	.	4ee-	8gg'	4r	4r
16GG	16G	.	.	.	.	.	.	.	.	.	.	.	.	.	.	.	.
16EE-	16E-	.	.	8ccc'	.	.	.	.	.	.	.	.	.	.	8ccc'	.	.
16CC	16C	.	.	.	.	.	.	.	.	.	.	.	.	.	.	.	.
=63	=63	=63	=63	=63	=63	=63	=63	=63	=63	=63	=63	=63	=63	=63	=63	=63	=63
4GGG	16G	16G	8..dd	4ccc	2r	2r	2r	2r	2r	16G	16G	2ryy	2ryy	8..dd	4ccc	16g	16g
.	16d	16d	.	.	.	.	.	.	.	16d	16d	.	.	.	.	16dd	16dd
.	16g	16g	.	.	.	.	.	.	.	16g	16g	.	.	.	.	16gg	16gg
.	16d	16d	.	.	.	.	.	.	.	16d	16d	.	.	.	.	16dd	16dd
.	.	.	32ee-	.	.	.	.	.	.	.	.	.	.	32ee-	.	.	.
4r	16g	16g	8dd'	4bb-	.	.	.	.	.	16g	16g	.	.	8dd'	4bb-	16gg	16gg
.	16d	16d	.	.	.	.	.	.	.	16d	16d	.	.	.	.	16dd	16dd
.	16B-	16B-	8gg'	.	.	.	.	.	.	16B-	16B-	.	.	8gg'	.	16b-	16b-
.	16G	16G	.	.	.	.	.	.	.	16G	16G	.	.	.	.	16g	16g
=64	=64	=64	=64	=64	=64	=64	=64	=64	=64	=64	=64	=64	=64	=64	=64	=64	=64
16DD	16D	4.D	4gg	8..aan	4D	4d	4dd	4D	4d	2D	2D	2ryy	2ryy	4gg	8..aan	4dd	4dd
16AA	16A	.	.	.	.	.	.	.	.	.	.	.	.	.	.	.	.
16D	16d	.	.	.	.	.	.	.	.	.	.	.	.	.	.	.	.
16AA	16A	.	.	.	.	.	.	.	.	.	.	.	.	.	.	.	.
.	.	.	.	32bb-	.	.	.	.	.	.	.	.	.	.	32bb-	.	.
16D	16d	.	4ff#	8aa'	4r	4ryy	4r	4ryy	4r	.	.	.	.	4ff#	8aa'	16r	16r
16AA	16A	.	.	.	.	.	.	.	.	.	.	.	.	.	.	16ddd	16ddd
16FF#	16F#	8d	.	8ddd'	.	.	.	.	.	.	.	.	.	.	8ddd'	16ddd	16ddd
16DD	16D	.	.	.	.	.	.	.	.	.	.	.	.	.	.	16ddd	16ddd
=65	=65	=65	=65	=65	=65	=65	=65	=65	=65	=65	=65	=65	=65	=65	=65	=65	=65
*staff:1	*staff:1	*staff:2	*staff:3	*staff:4	*staff:5	*staff:6	*staff:6	*staff:7	*staff:7	*staff:8	*staff:8	*	*	*staff:10	*staff:10	*staff:11	*staff:11
16EE-Xz	16E-Xz	16e-Xz	16ggz	16dddz	2r	2r	2r	2r	2r	16E-Xz	16E-Xz	2r	2r	4gg	16dddz	16dddz	16dddz
16E-X	16e-X	16ee-X	16g	16ccc	.	.	.	.	.	16e-X	16e-X	.	.	.	16ccc	16ccc	16ccc
16E-'	16e-'	16ee-'	16g'	16ccc'	.	.	.	.	.	16e-'	16e-'	.	.	.	16ccc'	16ccc'	16ccc'
16E-'	16e-'	16ee-'	16g'	16ccc'	.	.	.	.	.	16e-'	16e-'	.	.	.	16ccc'	16ccc'	16ccc'
16DDz	16Dz	16dz	16fnz	16cccz	.	.	.	.	.	16Dz	16Dz	.	.	4ffn	16cccz	16cccz	16cccz
16D	16d	16dd	16ffn	16bb-	.	.	.	.	.	16d	16d	.	.	.	16bb-	16bb-	16bb-
16D'	16d'	16dd'	16ff'	16bb-'	.	.	.	.	.	16d'	16d'	.	.	.	16bb-'	16bb-'	16bb-'
16D'	16d'	16dd'	16ff'	16bb-'	.	.	.	.	.	16d'	16d'	.	.	.	16bb-'	16bb-'	16bb-'
=66	=66	=66	=66	=66	=66	=66	=66	=66	=66	=66	=66	=66	=66	=66	=66	=66	=66
16CCz	16Cz	16cz	16ee-z	16bb-z	2r	2r	2r	2r	2r	16Cz	16Cz	2r	2r	4ee-	16bb-z	16bb-z	16bb-z
16C	16c	16cc	16e-	16aa	.	.	.	.	.	16c	16c	.	.	.	16aa	16aa	16aa
16C'	16c'	16cc'	16e-'	16aa'	.	.	.	.	.	16c'	16c'	.	.	.	16aa'	16aa'	16aa'
16C'	16c'	16cc'	16e-'	16aa'	.	.	.	.	.	16c'	16c'	.	.	.	16aa'	16aa'	16aa'
16BBB-z	16BB-z	16B-z	16dz	16aaz	.	.	.	.	.	16BB-z	16BB-z	.	.	4dd	16aaz	16aaz	16aaz
16BB-	16B-	16b-	16dd	16gg	.	.	.	.	.	16B-	16B-	.	.	.	16gg	16gg	16gg
16BB-'	16B-'	16b-'	16dd'	16gg'	.	.	.	.	.	16B-'	16B-'	.	.	.	16gg'	16gg'	16gg'
16BB-'	16B-'	16b-'	16dd'	16gg'	.	.	.	.	.	16B-'	16B-'	.	.	.	16gg'	16gg'	16gg'
=67	=67	=67	=67	=67	=67	=67	=67	=67	=67	=67	=67	=67	=67	=67	=67	=67	=67
16C	16c	16cc	8d' 8a'y	8a'y 8ff#'	32D	2d	2dd	2D	2d	16c	16c	2d	[2dd	8a	8ff#	8ff#	8ff#
.	.	.	.	.	32D	.	.	.	.	.	.	.	.	.	.	.	.
16DD	16D	16d	.	.	32D	.	.	.	.	16D	16D	.	.	.	.	.	.
.	.	.	.	.	32D	.	.	.	.	.	.	.	.	.	.	.	.
16BB-	16B-	16b-	8d' 8b-'y	8b-'y 8gg'	32D	.	.	.	.	16B-	16B-	.	.	8b-	8gg	8gg	8gg
.	.	.	.	.	32D	.	.	.	.	.	.	.	.	.	.	.	.
16DD	16D	16d	.	.	32D	.	.	.	.	16D	16D	.	.	.	.	.	.
.	.	.	.	.	32D	.	.	.	.	.	.	.	.	.	.	.	.
16FF#	16F#	16f#	8cc'y 8aa'	8dd'y 8ccc'	32D	.	.	.	.	16F#	16F#	.	.	8aa	8ccc	8ccc	8ccc
.	.	.	.	.	32D	.	.	.	.	.	.	.	.	.	.	.	.
16DD	16D	16d	.	.	32D	.	.	.	.	16D	16D	.	.	.	.	.	.
.	.	.	.	.	32D	.	.	.	.	.	.	.	.	.	.	.	.
16GG	16G	16g	8b-'y 8gg'	8dd'y 8bb-'	32D	.	.	.	.	16G	16G	.	.	8gg	8bb-	8bb-	8bb-
.	.	.	.	.	32D	.	.	.	.	.	.	.	.	.	.	.	.
16DD	16D	16d	.	.	32D	.	.	.	.	16D	16D	.	.	.	.	.	.
.	.	.	.	.	32D	.	.	.	.	.	.	.	.	.	.	.	.
=68	=68	=68	=68	=68	=68	=68	=68	=68	=68	=68	=68	=68	=68	=68	=68	=68	=68
8D	8d	8dd	8d 8a 8ff#	16dd'y 16aa'	32D	8..d	8..dd	8..d	8..d	2d	2d	2d	2dd]	8.ff#	8.aa	16aa'	16aa'
.	.	.	.	.	32D	.	.	.	.	.	.	.	.	.	.	.	.
.	.	.	.	16aa'	32D	.	.	.	.	.	.	.	.	.	.	16aa'	16aa'
.	.	.	.	.	32D	.	.	.	.	.	.	.	.	.	.	.	.
8r	8r	8r	8r	16ff#'	32D	.	.	.	.	.	.	.	.	.	.	16ff#'	16ff#'
.	.	.	.	.	32D	.	.	.	.	.	.	.	.	.	.	.	.
.	.	.	.	16ddd'	32D	.	.	.	.	.	.	.	.	16dd	16ff#X	16ddd'	16ddd'
.	.	.	.	.	32D	32d	32dd	32d	32d	.	.	.	.	.	.	.	.
8DD	8D	8d	8d 8a 8ff#	16a'	32D	16d	16dd	16d	16d	.	.	.	.	8.ff#	8.aa	16a'	16a'
.	.	.	.	.	32D	.	.	.	.	.	.	.	.	.	.	.	.
.	.	.	.	16ff#'	32D	16d	16dd	16d	16d	.	.	.	.	.	.	16ff#'	16ff#'
.	.	.	.	.	32D	.	.	.	.	.	.	.	.	.	.	.	.
8r	8r	8r	8r	16dd'	32D	16d	16dd	16d	16d	.	.	.	.	.	.	16dd'	16dd'
.	.	.	.	.	32D	.	.	.	.	.	.	.	.	.	.	.	.
.	.	.	.	16aa'	32D	16d	16dd	16d	16d	.	.	.	.	16dd	16ff#	16aa'	16aa'
.	.	.	.	.	32D	.	.	.	.	.	.	.	.	.	.	.	.
=69	=69	=69	=69	=69	=69	=69	=69	=69	=69	=69	=69	=69	=69	=69	=69	=69	=69
8DD	8D	8d	8d 8a 8ff#	16f#'	32D	8..d	8..dd	8..d	8..d	2d	2d	2d	[2dd	8.ff#	8.aa	16f#'	16f#'
.	.	.	.	.	32D	.	.	.	.	.	.	.	.	.	.	.	.
.	.	.	.	16dd'	32D	.	.	.	.	.	.	.	.	.	.	16dd'	16dd'
.	.	.	.	.	32D	.	.	.	.	.	.	.	.	.	.	.	.
8r	8r	8r	8r	16a'	32D	.	.	.	.	.	.	.	.	.	.	16a'	16a'
.	.	.	.	.	32D	.	.	.	.	.	.	.	.	.	.	.	.
.	.	.	.	16ff#X'	32D	.	.	.	.	.	.	.	.	16dd	16ff#X	16ff#X'	16ff#X'
.	.	.	.	.	32D	32d	32dd	32d	32d	.	.	.	.	.	.	.	.
8DD	8D	8d	8d 8a 8ff#	16d'	32D	16d	16dd	16d	16d	.	.	.	.	8.ff#	8.aa	16d'	16d'
.	.	.	.	.	32D	.	.	.	.	.	.	.	.	.	.	.	.
.	.	.	.	16a'	32D	16d	16dd	16d	16d	.	.	.	.	.	.	16a'	16a'
.	.	.	.	.	32D	.	.	.	.	.	.	.	.	.	.	.	.
8r	8r	8r	8r	16f#'	32D	16d	16dd	16d	16d	.	.	.	.	.	.	16f#'	16f#'
.	.	.	.	.	32D	.	.	.	.	.	.	.	.	.	.	.	.
.	.	.	.	16dd'	32D	16d	16dd	16d	16d	.	.	.	.	16dd	16ff#	16dd'	16dd'
.	.	.	.	.	32D	.	.	.	.	.	.	.	.	.	.	.	.
=70	=70	=70	=70	=70	=70	=70	=70	=70	=70	=70	=70	=70	=70	=70	=70	=70	=70
4DD	4D	4d	4d 4a 4ff#	16d'	4D	4d	4dd	4d	4d	4d	4d	8d	8dd]	8ff#	8dd	8d	8d
.	.	.	.	16a'	.	.	.	.	.	.	.	.	.	.	.	.	.
.	.	.	.	16f#'	.	.	.	.	.	.	.	96ryy	8r	96ryy	8r	8r	8r
.	.	.	.	.	.	.	.	.	.	.	.	96ryy	.	96ryy	.	.	.
.	.	.	.	.	.	.	.	.	.	.	.	96ryy	.	96ryy	.	.	.
.	.	.	.	.	.	.	.	.	.	.	.	96ryy	.	96ryy	.	.	.
.	.	.	.	.	.	.	.	.	.	.	.	96ryy	.	96ryy	.	.	.
.	.	.	.	.	.	.	.	.	.	.	.	96ryy	.	96ryy	.	.	.
.	.	.	.	16dd'	.	.	.	.	.	.	.	96ryy	.	96ryy	.	.	.
.	.	.	.	.	.	.	.	.	.	.	.	96ryy	.	96ryy	.	.	.
.	.	.	.	.	.	.	.	.	.	.	.	96ryy	.	96ryy	.	.	.
.	.	.	.	.	.	.	.	.	.	.	.	96ryy	.	96ryy	.	.	.
.	.	.	.	.	.	.	.	.	.	.	.	96ryy	.	96ryy	.	.	.
.	.	.	.	.	.	.	.	.	.	.	.	96ryy	.	96ryy	.	.	.
4r	4r	4r	4r	16d'	4r	4ryy	4r	4r	4r	4r	4r	96ryy	4r	96ryy	4r	4r	4r
.	.	.	.	.	.	.	.	.	.	.	.	96ryy	.	96ryy	.	.	.
.	.	.	.	.	.	.	.	.	.	.	.	96ryy	.	96ryy	.	.	.
.	.	.	.	.	.	.	.	.	.	.	.	96ryy	.	96ryy	.	.	.
.	.	.	.	.	.	.	.	.	.	.	.	96ryy	.	96ryy	.	.	.
.	.	.	.	.	.	.	.	.	.	.	.	96ryy	.	96ryy	.	.	.
.	.	.	.	16a'	.	.	.	.	.	.	.	96ryy	.	96ryy	.	.	.
.	.	.	.	.	.	.	.	.	.	.	.	96ryy	.	96ryy	.	.	.
.	.	.	.	.	.	.	.	.	.	.	.	96ryy	.	96ryy	.	.	.
.	.	.	.	.	.	.	.	.	.	.	.	96ryy	.	96ryy	.	.	.
.	.	.	.	.	.	.	.	.	.	.	.	96ryy	.	96ryy	.	.	.
.	.	.	.	.	.	.	.	.	.	.	.	96ryy	.	96ryy	.	.	.
.	.	.	.	16f#'	.	.	.	.	.	.	.	96ryy	.	96ryy	.	.	.
.	.	.	.	.	.	.	.	.	.	.	.	96ryy	.	96ryy	.	.	.
.	.	.	.	.	.	.	.	.	.	.	.	96ryy	.	96ryy	.	.	.
.	.	.	.	.	.	.	.	.	.	.	.	96ryy	.	96ryy	.	.	.
.	.	.	.	.	.	.	.	.	.	.	.	96ryy	.	96ryy	.	.	.
.	.	.	.	.	.	.	.	.	.	.	.	96ryy	.	96ryy	.	.	.
.	.	.	.	16dd'	.	.	.	.	.	.	.	96ryy	.	96ryy	.	.	.
.	.	.	.	.	.	.	.	.	.	.	.	96ryy	.	96ryy	.	.	.
.	.	.	.	.	.	.	.	.	.	.	.	96ryy	.	96ryy	.	.	.
.	.	.	.	.	.	.	.	.	.	.	.	96ryy	.	96ryy	.	.	.
.	.	.	.	.	.	.	.	.	.	.	.	96ryy	.	96ryy	.	.	.
.	.	.	.	.	.	.	.	.	.	.	.	96ryy	.	96ryy	.	.	.
!!WARNING: This measure contained too few data records
=71	=71	=71	=71	=71	=71	=71	=71	=71	=71	=71	=71	=71	=71	=71	=71	=71	=71
*staff:7	*staff:7	*staff:8	*staff:9	*staff:10	*	*	*	*	*	*staff:11	*staff:11	*	*	*	*	*staff:12	*staff:12
2r	2r	2r	2r	16d'	2ryy	2ryy	2ryy	2ryy	2ryy	2r	2r	2ryy	2ryy	2ryy	2ryy	2r	2r
.	.	.	.	16a'	.	.	.	.	.	.	.	.	.	.	.	.	.
.	.	.	.	16f#'	.	.	.	.	.	.	.	.	.	.	.	.	.
.	.	.	.	16dd'	.	.	.	.	.	.	.	.	.	.	.	.	.
.	.	.	.	16d'	.	.	.	.	.	.	.	.	.	.	.	.	.
.	.	.	.	16a'	.	.	.	.	.	.	.	.	.	.	.	.	.
.	.	.	.	16f#'	.	.	.	.	.	.	.	.	.	.	.	.	.
.	.	.	.	16dd'	.	.	.	.	.	.	.	.	.	.	.	.	.
=72	=72	=72	=72	=72	=72	=72	=72	=72	=72	=72	=72	=72	=72	=72	=72	=72	=72
2r	2r	2r	2r	16d	2ryy	2ryy	2ryy	2ryy	2ryy	2r	2r	2ryy	2ryy	2ryy	2ryy	2r	2r
.	.	.	.	16a	.	.	.	.	.	.	.	.	.	.	.	.	.
.	.	.	.	16f#	.	.	.	.	.	.	.	.	.	.	.	.	.
.	.	.	.	16ccn	.	.	.	.	.	.	.	.	.	.	.	.	.
.	.	.	.	16d	.	.	.	.	.	.	.	.	.	.	.	.	.
.	.	.	.	16a	.	.	.	.	.	.	.	.	.	.	.	.	.
.	.	.	.	16f#	.	.	.	.	.	.	.	.	.	.	.	.	.
.	.	.	.	16cc	.	.	.	.	.	.	.	.	.	.	.	.	.
=73	=73	=73	=73	=73	=73	=73	=73	=73	=73	=73	=73	=73	=73	=73	=73	=73	=73
2r	2r	2r	2r	16d	2ryy	2ryy	2ryy	2ryy	2ryy	2ryy	16D	2ryy	2ryy	2ryy	2ryy	2r	2r
.	.	.	.	16a	.	.	.	.	.	.	16A	.	.	.	.	.	.
.	.	.	.	16f#	.	.	.	.	.	.	16F#	.	.	.	.	.	.
.	.	.	.	16cc	.	.	.	.	.	.	16A	.	.	.	.	.	.
.	.	.	.	16d	.	.	.	.	.	.	16D	.	.	.	.	.	.
.	.	.	.	16a	.	.	.	.	.	.	16A	.	.	.	.	.	.
.	.	.	.	16f#	.	.	.	.	.	.	16F#	.	.	.	.	.	.
.	.	.	.	16cc	.	.	.	.	.	.	16c	.	.	.	.	.	.
=74||	=74||	=74||	=74||	=74||	=74||	=74||	=74||	=74||	=74||	=74||	=74||	=74||	=74||	=74||	=74||	=74||	=74||
*k[]	*k[]	*k[]	*k[]	*k[]	*	*	*	*	*	*	*k[]	*	*	*	*	*	*k[]
*k[f#]	*k[f#]	*k[f#]	*k[f#]	*k[f#]	*	*	*	*	*	*	*k[f#]	*	*	*	*	*	*k[f#]
8GG	8G	8g	16d'	8..b	2ryy	2ryy	2ryy	2ryy	2ryy	2ryy	16D	2ryy	2ryy	2ryy	2ryy	2ryy	8..bbn
.	.	.	16b'	.	.	.	.	.	.	.	16Bn	.	.	.	.	.	.
8r	8r	8r	16g'	.	.	.	.	.	.	.	16G	.	.	.	.	.	.
.	.	.	16b'	.	.	.	.	.	.	.	16B	.	.	.	.	.	.
.	.	.	.	32cc	.	.	.	.	.	.	.	.	.	.	.	.	32ccc
8DD	8D	8f#	16c'	8a'	.	.	.	.	.	.	16C	.	.	.	.	.	8aa'
.	.	.	16a'	.	.	.	.	.	.	.	16A	.	.	.	.	.	.
8r	8r	8r	16f#'	8dd'	.	.	.	.	.	.	16F#	.	.	.	.	.	8ddd'
.	.	.	16a'	.	.	.	.	.	.	.	16A	.	.	.	.	.	.
=75	=75	=75	=75	=75	=75	=75	=75	=75	=75	=75	=75	=75	=75	=75	=75	=75	=75
8EE	8E	8g	8B	8g	2ryy	2ryy	2ryy	2ryy	2ryy	2ryy	8BB	2ryy	2ryy	2ryy	2ryy	2ryy	8gg
8r	8r	8r	8r	8r	.	.	.	.	.	.	8r	.	.	.	.	.	8r
8r	8r	8r	8r	8r	.	.	.	.	.	.	4r	.	.	.	.	.	8r
8CCz	8Cz	8ez	8gz	8eez	.	.	.	.	.	.	.	.	.	.	.	.	8eeez
=76	=76	=76	=76	=76	=76	=76	=76	=76	=76	=76	=76	=76	=76	=76	=76	=76	=76
*	*	*	*	*	*	*	*	*	*	*k[f#]	*	*	*	*	*	*	*
8C	8c	8A	8d	8f#	2ryy	2ryy	2ryy	2ryy	2ryy	2r	2r	2ryy	2ryy	2ryy	2ryy	2ryy	8ff#
8BB'	8B'	8d'	8d'	8g'	.	.	.	.	.	.	.	.	.	.	.	.	8gg'
8AA'	8A'	8c'	8f#'	8a'	.	.	.	.	.	.	.	.	.	.	.	.	8aa'
8GG'	8G'	16B	8g'	8b'	.	.	.	.	.	.	.	.	.	.	.	.	8bb'
.	.	16G	.	.	.	.	.	.	.	.	.	.	.	.	.	.	.
=77	=77	=77	=77	=77	=77	=77	=77	=77	=77	=77	=77	=77	=77	=77	=77	=77	=77
*staff:1	*staff:1	*staff:2	*staff:3	*staff:4	*	*	*	*	*	*staff:5	*staff:5	*	*	*	*	*	*staff:6
4DD	4D	4D	8a'	8cc'	2ryy	2ryy	2ryy	2ryy	2ryy	2r	2r	2ryy	2ryy	2ryy	2ryy	2ryy	8ccc
.	.	.	8aq	8ccq	.	.	.	.	.	.	.	.	.	.	.	.	8cccq
.	.	.	16g	16b	.	.	.	.	.	.	.	.	.	.	.	.	16bb
.	.	.	32f#	32a	.	.	.	.	.	.	.	.	.	.	.	.	32aa
.	.	.	32g	32b	.	.	.	.	.	.	.	.	.	.	.	.	32bb
4r	4r	4r	8f#	8a	.	.	.	.	.	.	.	.	.	.	.	.	8aa
.	.	.	8r	8r	.	.	.	.	.	.	.	.	.	.	.	.	8r
=78	=78	=78	=78	=78	=78	=78	=78	=78	=78	=78	=78	=78	=78	=78	=78	=78	=78
8GG	8G	8D	8d	8..b	2ryy	2ryy	2ryy	2ryy	2ryy	2r	2r	2ryy	2ryy	2ryy	2ryy	2ryy	8..bb
8r	8r	8r	8r	.	.	.	.	.	.	.	.	.	.	.	.	.	.
.	.	.	.	32cc	.	.	.	.	.	.	.	.	.	.	.	.	32ccc
8DD	8D	8F#	8c	8a'	.	.	.	.	.	.	.	.	.	.	.	.	8aa'
8r	8r	8r	8r	8dd'	.	.	.	.	.	.	.	.	.	.	.	.	8ddd'
=79	=79	=79	=79	=79	=79	=79	=79	=79	=79	=79	=79	=79	=79	=79	=79	=79	=79
2EE	2E	2G	2c#	8g'	2ryy	2ryy	2ryy	2ryy	2ryy	2r	2r	2ryy	2ryy	2ryy	2ryy	2ryy	8gg'
.	.	.	.	8b'	.	.	.	.	.	.	.	.	.	.	.	.	8bb'
.	.	.	.	8e'	.	.	.	.	.	.	.	.	.	.	.	.	8ee'
.	.	.	.	8b-z	.	.	.	.	.	.	.	.	.	.	.	.	8bb-z
=80	=80	=80	=80	=80	=80	=80	=80	=80	=80	=80	=80	=80	=80	=80	=80	=80	=80
8FF#	8F#	8F#	8d	8d	2ryy	2ryy	2ryy	2ryy	2ryy	2r	2r	2ryy	2ryy	2ryy	2ryy	2ryy	8dd
8GG'	8G'	8G'	8d'	8g'	.	.	.	.	.	.	.	.	.	.	.	.	8gg'
8AA'	8A'	8A'	8d'	8f#'	.	.	.	.	.	.	.	.	.	.	.	.	8ff#'
8AAA'	8AA'	8G'	8c#'	8e'	.	.	.	.	.	.	.	.	.	.	.	.	8ee'
=81	=81	=81	=81	=81	=81	=81	=81	=81	=81	=81	=81	=81	=81	=81	=81	=81	=81
8r	8r	4F#	4d	4d	2ryy	2ryy	2ryy	2ryy	2ryy	2r	2r	2ryy	2ryy	2ryy	2ryy	2ryy	4dd
8AAA'	8AA'	.	.	.	.	.	.	.	.	.	.	.	.	.	.	.	.
8DDD'	8DD'	4r	4r	4r	.	.	.	.	.	.	.	.	.	.	.	.	4r
8r	8r	.	.	.	.	.	.	.	.	.	.	.	.	.	.	.	.
=82	=82	=82	=82	=82	=82	=82	=82	=82	=82	=82	=82	=82	=82	=82	=82	=82	=82
4GG	4G	4D	4d	8..b	2ryy	2ryy	2ryy	2ryy	2ryy	2r	2r	2ryy	2ryy	2ryy	2ryy	2ryy	8..bb
.	.	.	.	32cc	.	.	.	.	.	.	.	.	.	.	.	.	32ccc
4DD	4D	4F#	4cn	16.a	.	.	.	.	.	.	.	.	.	.	.	.	16.aa
.	.	.	.	32dd'	.	.	.	.	.	.	.	.	.	.	.	.	32ddd'
.	.	.	.	16.dd'	.	.	.	.	.	.	.	.	.	.	.	.	16.ddd'
.	.	.	.	32dd'	.	.	.	.	.	.	.	.	.	.	.	.	32ddd'
=83	=83	=83	=83	=83	=83	=83	=83	=83	=83	=83	=83	=83	=83	=83	=83	=83	=83
[4EE	[4E	[4G	4B	16.dd	2ryy	2ryy	2ryy	2ryy	2ryy	2r	2r	2ryy	2ryy	2ryy	2ryy	2ryy	16.ddd
.	.	.	.	32g	.	.	.	.	.	.	.	.	.	.	.	.	32gg
.	.	.	.	16.g	.	.	.	.	.	.	.	.	.	.	.	.	16.gg
.	.	.	.	32g	.	.	.	.	.	.	.	.	.	.	.	.	32gg
16.EE]	16.E]	16.G]	16.c	16.g	.	.	.	.	.	.	.	.	.	.	.	.	16.gg
32CCz	32Cz	32cz	32gz	32eez	.	.	.	.	.	.	.	.	.	.	.	.	32eee
16.CC	16.C	16.c	16.g	16.ee	.	.	.	.	.	.	.	.	.	.	.	.	16.eee
32CC	32C	32c	32g	32ee	.	.	.	.	.	.	.	.	.	.	.	.	32eee
=84	=84	=84	=84	=84	=84	=84	=84	=84	=84	=84	=84	=84	=84	=84	=84	=84	=84
8C'	8c'	8A'	16.f#	16.f#	2ryy	2ryy	2ryy	2ryy	2ryy	2d	2d	2ryy	2ryy	2ryy	2ryy	2ryy	16.ff#
.	.	.	32d	32d	.	.	.	.	.	.	.	.	.	.	.	.	32dd
8BB'	8B'	8G'	16.g	16.g	.	.	.	.	.	.	.	.	.	.	.	.	16.gg
.	.	.	32d	32d	.	.	.	.	.	.	.	.	.	.	.	.	32dd
8AA'	8A'	8c'	16.f#	16.a	.	.	.	.	.	.	.	.	.	.	.	.	16.aa
.	.	.	32d	32d	.	.	.	.	.	.	.	.	.	.	.	.	32dd
8GG'	8G'	8B'	16.g	16.b	.	.	.	.	.	.	.	.	.	.	.	.	16.bb
.	.	.	32d	32d	.	.	.	.	.	.	.	.	.	.	.	.	32dd
=85	=85	=85	=85	=85	=85	=85	=85	=85	=85	=85	=85	=85	=85	=85	=85	=85	=85
*staff:10	*staff:10	*staff:11	*staff:12	*staff:13	*staff:14	*staff:15	*staff:15	*staff:16	*staff:16	*staff:17	*staff:17	*staff:18	*staff:18	*staff:19	*staff:19	*	*staff:20
*	*	*	*	*	*	*	*	*	*	*	*	*	*	*k[f#]	*k[f#]	*	*
4DD	4D	4D	8a	8cc	2r	2r	2r	2r	2r	8c	8c	2r	2r	2r	2r	2ryy	8ccc
.	.	.	8aq	8ccq	.	.	.	.	.	8cq	8cq	.	.	.	.	.	8cccq
.	.	.	16g	16b	.	.	.	.	.	16B	16B	.	.	.	.	.	16bb
.	.	.	32f#	32a	.	.	.	.	.	32A	32A	.	.	.	.	.	32aa
.	.	.	32g	32b	.	.	.	.	.	32B	32B	.	.	.	.	.	32bb
4r	4r	4r	8f#	8a	.	.	.	.	.	8A	8A	.	.	.	.	.	8aa
.	.	.	8r	8a#	.	.	.	.	.	8A#	8A#	.	.	.	.	.	8aa#
=86	=86	=86	=86	=86	=86	=86	=86	=86	=86	=86	=86	=86	=86	=86	=86	=86	=86
2r	2r	4G	[4d	8..b	2r	2r	2r	2r	2r	8..B	8..B	2r	2r	2r	2r	2ryy	8..bb
.	.	.	.	32cc	.	.	.	.	.	32c	32c	.	.	.	.	.	32ccc
.	.	16.F#	16.d]	16.a	.	.	.	.	.	16.A	16.A	.	.	.	.	.	16.aa
.	.	32f#'	32a'	32dd'	.	.	.	.	.	32f#'	32f#'	.	.	.	.	.	32ddd'
.	.	16.f#'	16.a'	16.dd'	.	.	.	.	.	16.f#'	16.f#'	.	.	.	.	.	16.ddd'
.	.	32f#'	32a'	32dd'	.	.	.	.	.	32f#'	32f#'	.	.	.	.	.	32ddd'
=87	=87	=87	=87	=87	=87	=87	=87	=87	=87	=87	=87	=87	=87	=87	=87	=87	=87
*	*	*	*	*	*	*	*	*	*	*	*	*	*	*	*	*staff:20	*
*	*	*	*	*	*	*	*	*	*	*	*	*	*	*	*	*k[f#]	*
4r	4r	8..e	8..g	16.dd'	4r	4ryy	4r	4ryy	4r	8..e	8..e	32ee'y	4r	32ee'y	4r	4r	16.ddd'
.	.	.	.	.	.	.	.	.	.	.	.	96ryy	.	96ryy	.	.	.
.	.	.	.	.	.	.	.	.	.	.	.	96ryy	.	96ryy	.	.	.
.	.	.	.	.	.	.	.	.	.	.	.	96ryy	.	96ryy	.	.	.
.	.	.	.	.	.	.	.	.	.	.	.	96ryy	.	96ryy	.	.	.
.	.	.	.	.	.	.	.	.	.	.	.	96ryy	.	96ryy	.	.	.
.	.	.	.	.	.	.	.	.	.	.	.	96ryy	.	96ryy	.	.	.
.	.	.	.	32cc#'	.	.	.	.	.	.	.	96ryy	.	96ryy	.	.	32ccc#'
.	.	.	.	.	.	.	.	.	.	.	.	96ryy	.	96ryy	.	.	.
.	.	.	.	.	.	.	.	.	.	.	.	96ryy	.	96ryy	.	.	.
.	.	.	.	16.cc#'	.	.	.	.	.	.	.	96ryy	.	96ryy	.	.	16.ccc#'
.	.	.	.	.	.	.	.	.	.	.	.	96ryy	.	96ryy	.	.	.
.	.	.	.	.	.	.	.	.	.	.	.	96ryy	.	96ryy	.	.	.
.	.	.	.	.	.	.	.	.	.	.	.	96ryy	.	96ryy	.	.	.
.	.	.	.	.	.	.	.	.	.	.	.	96ryy	.	96ryy	.	.	.
.	.	.	.	.	.	.	.	.	.	.	.	96ryy	.	96ryy	.	.	.
.	.	.	.	.	.	.	.	.	.	.	.	96ryy	.	96ryy	.	.	.
.	.	.	.	.	.	.	.	.	.	.	.	96ryy	.	96ryy	.	.	.
.	.	.	.	.	.	.	.	.	.	.	.	96ryy	.	96ryy	.	.	.
.	.	32c#'	32e'	32b-'	.	.	.	.	.	32c#	32c#	96ryy	.	96ryy	.	.	32bb-'
.	.	.	.	.	.	.	.	.	.	.	.	96ryy	.	96ryy	.	.	.
.	.	.	.	.	.	.	.	.	.	.	.	96ryy	.	96ryy	.	.	.
8r	8r	16.c#'	16.e'	16.b-'	8r	8ryy	8r	8ryy	8r	16.c#'	16.c#'	96ryy	8r	96ryy	8r	8r	16.bb-'
.	.	.	.	.	.	.	.	.	.	.	.	96ryy	.	96ryy	.	.	.
.	.	.	.	.	.	.	.	.	.	.	.	96ryy	.	96ryy	.	.	.
.	.	.	.	.	.	.	.	.	.	.	.	96ryy	.	96ryy	.	.	.
.	.	.	.	.	.	.	.	.	.	.	.	96ryy	.	96ryy	.	.	.
.	.	.	.	.	.	.	.	.	.	.	.	96ryy	.	96ryy	.	.	.
.	.	.	.	.	.	.	.	.	.	.	.	96ryy	.	96ryy	.	.	.
.	.	.	.	.	.	.	.	.	.	.	.	96ryy	.	96ryy	.	.	.
.	.	.	.	.	.	.	.	.	.	.	.	96ryy	.	96ryy	.	.	.
.	.	32c#'	32e'	32a'	.	.	.	.	.	32c#'	32c#'	96ryy	.	96ryy	.	.	32aa'
.	.	.	.	.	.	.	.	.	.	.	.	96ryy	.	96ryy	.	.	.
.	.	.	.	.	.	.	.	.	.	.	.	96ryy	.	96ryy	.	.	.
16.r	16.r	16.c#'	16.e'	16.a'	16.r	16.ryy	16.r	16.ryy	16.r	16.c#'	16.c#'	96ryy	16.r	96ryy	16.r	16.r	16.aa'
.	.	.	.	.	.	.	.	.	.	.	.	96ryy	.	96ryy	.	.	.
.	.	.	.	.	.	.	.	.	.	.	.	96ryy	.	96ryy	.	.	.
.	.	.	.	.	.	.	.	.	.	.	.	96ryy	.	96ryy	.	.	.
.	.	.	.	.	.	.	.	.	.	.	.	96ryy	.	96ryy	.	.	.
.	.	.	.	.	.	.	.	.	.	.	.	96ryy	.	96ryy	.	.	.
.	.	.	.	.	.	.	.	.	.	.	.	96ryy	.	96ryy	.	.	.
.	.	.	.	.	.	.	.	.	.	.	.	96ryy	.	96ryy	.	.	.
.	.	.	.	.	.	.	.	.	.	.	.	96ryy	.	96ryy	.	.	.
32CC#'	32C#'	32e'	32e'	32g'	32AA'	32a'	32a'	32a'	32a'	32e'	32e'	96ryy	32gg'	96ryy	32gg'	32gg'	32gg'
.	.	.	.	.	.	.	.	.	.	.	.	96ryy	.	96ryy	.	.	.
.	.	.	.	.	.	.	.	.	.	.	.	96ryy	.	96ryy	.	.	.
!!WARNING: This measure contained too few data records
=88	=88	=88	=88	=88	=88	=88	=88	=88	=88	=88	=88	=88	=88	=88	=88	=88	=88
16.CC#'	16.C#'	16.A'	16.e'	16.g'	16.AA'	16.a'	16.a'	16.a'	16.a'	16.A'	16.A'	16.ee'y	16.gg'	16.ee'y	16.gg'	16.gg'	16.gg'
32DD'	32D'	32A'	32d'	32f#'	32D'	32d'	32dd'	32a'	32a'	32A'	32A'	32dd'y	32ff#'	32dd'y	32ff#'	32ff#'	32ff#'
16.DD'	16.D'	16.A'	16.d'	16.f#'	16.D'	16.d'	16.dd'	16.a'	16.a'	16.A'	16.A'	16.dd'y	16.ff#'	16.dd'y	16.ff#'	16.ff#'	16.ff#'
32GGG'	32GG'	32G'	32B'	32e'	32D'	32d'	32dd'	32a'	32a'	32G'	32G'	32g'y	32ee'	32g'y	32ee'	32ee'	32ee'
16.GGG'	16.GG'	16.G'	16.B'	16.e'	16.D'	16.d'	16.dd'	16.b'	16.b'	16.G'	16.G'	16.g'y	16.ee'	16.g'y	16.ee'	16.ee'	16.ee'
32AAA'	32AA'	32F#'	32A'	32d'	32AA'	32a'	32a'	32d'	32a'	32F#'	32F#'	32f#'y	32dd'	32f#'y	32dd'	32dd'	32dd'
16.AAA'	16.AA'	16.F#'	16.A'	16.d'	16.AA'	16.a'	16.a'	16.d'	16.a'	16.F#'	16.F#'	16.f#'y	16.dd'	16.f#'y	16.dd'	16.dd'	16.dd'
32AAA'	32AA'	32E'	32c#'	32c#'	32AA'	32a'	32a'	32a'	32a'	32E'	32E'	32e'y	32cc#'	32e'y	32cc#'	32cc#'	32cc#'
=89	=89	=89	=89	=89	=89	=89	=89	=89	=89	=89	=89	=89	=89	=89	=89	=89	=89
16.AAA'	16.AA'	16.E'	16.c#'	16.c#'	16.AA'	16.a'	16.a'	16.a'	16.a'	16.E'	16.E'	16.e'y	16.cc#'	16.e'y	16.cc#'	16.cc#'	16.cc#'
32DDD'	32DD'	32F#'	32d'	32d'	32D'	32d'	32dd'	32d'	32a'	32D'	32D'	32f#'y	32dd'	32f#'y	32dd'	32dd'	32dd'
16.DDD'	16.DD'	16.F#'	16.d'	16.d'	16.D'	16.d'	16.dd'	16.d'	16.a'	16.D'	16.D'	16.f#'y	16.dd'	16.f#'y	16.dd'	16.dd'	16.dd'
32DDD'	32DD'	32F#'	32d'	32d'	32D'	32d'	32dd'	32d'	32a'	32D'	32D'	32f#'y	32dd'	32f#'y	32dd'	32dd'	32dd'
8DDD'	8DD'	8F#'	8d'	8d'	8D'	8d'	8dd'	8d'	8a'	8D'	8D'	8f#'y	8dd'	8f#'y	8dd'	8dd'	8dd'
8r;	8r;	8r;	8r;	8r;	8r;	8ryy	8r;	8ryy	8r;	8r;	8r;	96ryy	8r;	96ryy	8r;	8r;	8r;
.	.	.	.	.	.	.	.	.	.	.	.	96ryy	.	96ryy	.	.	.
.	.	.	.	.	.	.	.	.	.	.	.	96ryy	.	96ryy	.	.	.
.	.	.	.	.	.	.	.	.	.	.	.	96ryy	.	96ryy	.	.	.
.	.	.	.	.	.	.	.	.	.	.	.	96ryy	.	96ryy	.	.	.
.	.	.	.	.	.	.	.	.	.	.	.	96ryy	.	96ryy	.	.	.
.	.	.	.	.	.	.	.	.	.	.	.	96ryy	.	96ryy	.	.	.
.	.	.	.	.	.	.	.	.	.	.	.	96ryy	.	96ryy	.	.	.
.	.	.	.	.	.	.	.	.	.	.	.	96ryy	.	96ryy	.	.	.
.	.	.	.	.	.	.	.	.	.	.	.	96ryy	.	96ryy	.	.	.
.	.	.	.	.	.	.	.	.	.	.	.	96ryy	.	96ryy	.	.	.
.	.	.	.	.	.	.	.	.	.	.	.	96ryy	.	96ryy	.	.	.
!!WARNING: This measure contained too few data records
=90	=90	=90	=90	=90	=90	=90	=90	=90	=90	=90	=90	=90	=90	=90	=90	=90	=90
2ryy	8..cn	2r	4f#	8a	2r	2r	2r	2r	2r	2r	2r	2r	2r	2r	2r	2r	2r
.	.	.	.	16d	.	.	.	.	.	.	.	.	.	.	.	.	.
.	.	.	.	32r	.	.	.	.	.	.	.	.	.	.	.	.	.
.	32d	.	.	32a'	.	.	.	.	.	.	.	.	.	.	.	.	.
.	8B'	.	4g#	8b	.	.	.	.	.	.	.	.	.	.	.	.	.
.	8e'	.	.	16d	.	.	.	.	.	.	.	.	.	.	.	.	.
.	.	.	.	32r	.	.	.	.	.	.	.	.	.	.	.	.	.
.	.	.	.	32b'	.	.	.	.	.	.	.	.	.	.	.	.	.
=91	=91	=91	=91	=91	=91	=91	=91	=91	=91	=91	=91	=91	=91	=91	=91	=91	=91
*	*staff:6	*staff:7	*staff:8	*staff:9	*	*	*	*	*	*	*	*	*	*	*	*	*
2ryy	4A	2r	8a	8cc	2ryy	2ryy	2ryy	2ryy	2ryy	2ryy	2ryy	2ryy	2ryy	2ryy	2ryy	2ryy	2ryy
.	.	.	8ccq	8eeq	.	.	.	.	.	.	.	.	.	.	.	.	.
.	.	.	16b	16dd	.	.	.	.	.	.	.	.	.	.	.	.	.
.	.	.	32a	32cc	.	.	.	.	.	.	.	.	.	.	.	.	.
.	.	.	32b	32dd	.	.	.	.	.	.	.	.	.	.	.	.	.
.	4r	.	8cc	8ee	.	.	.	.	.	.	.	.	.	.	.	.	.
.	.	.	8r	8r	.	.	.	.	.	.	.	.	.	.	.	.	.
=92	=92	=92	=92	=92	=92	=92	=92	=92	=92	=92	=92	=92	=92	=92	=92	=92	=92
*staff:6	*	*	*	*	*	*	*	*	*	*	*	*	*	*	*	*	*
2r	2r	8..fnz	4b	8dd	2ryy	2ryy	2ryy	2ryy	2ryy	2ryy	2ryy	2ryy	2ryy	2ryy	2ryy	2ryy	2ryy
.	.	.	.	16g	.	.	.	.	.	.	.	.	.	.	.	.	.
.	.	.	.	32r	.	.	.	.	.	.	.	.	.	.	.	.	.
.	.	32g	.	32dd'	.	.	.	.	.	.	.	.	.	.	.	.	.
.	.	8e'	4cc#	8ee	.	.	.	.	.	.	.	.	.	.	.	.	.
.	.	8a'	.	16g	.	.	.	.	.	.	.	.	.	.	.	.	.
.	.	.	.	32r	.	.	.	.	.	.	.	.	.	.	.	.	.
.	.	.	.	32ee'	.	.	.	.	.	.	.	.	.	.	.	.	.
=93	=93	=93	=93	=93	=93	=93	=93	=93	=93	=93	=93	=93	=93	=93	=93	=93	=93
2r	2r	4d	8dd	8ffn	2ryy	2ryy	2ryy	2ryy	2ryy	2ryy	2ryy	2ryy	2ryy	2ryy	2ryy	2ryy	2ryy
.	.	.	8ff#q	8aaq	.	.	.	.	.	.	.	.	.	.	.	.	.
.	.	.	16ee	16gg	.	.	.	.	.	.	.	.	.	.	.	.	.
.	.	.	32dd	32ff	.	.	.	.	.	.	.	.	.	.	.	.	.
.	.	.	32ee	32gg	.	.	.	.	.	.	.	.	.	.	.	.	.
.	.	8r	8ffn'	8aa'	.	.	.	.	.	.	.	.	.	.	.	.	.
.	.	8g	8b'	8dd'	.	.	.	.	.	.	.	.	.	.	.	.	.
=94	=94	=94	=94	=94	=94	=94	=94	=94	=94	=94	=94	=94	=94	=94	=94	=94	=94
4r	4r	4c	8cc	8ee	2ryy	2ryy	2ryy	2ryy	2ryy	2ryy	2ryy	2ryy	2ryy	2ryy	2ryy	2ryy	2ryy
.	.	.	8eeq	8ggq	.	.	.	.	.	.	.	.	.	.	.	.	.
.	.	.	16dd	16ffn	.	.	.	.	.	.	.	.	.	.	.	.	.
.	.	.	32cc	32ee	.	.	.	.	.	.	.	.	.	.	.	.	.
.	.	.	32dd	32ff	.	.	.	.	.	.	.	.	.	.	.	.	.
8r	8r	8r	8ee'	8gg'	.	.	.	.	.	.	.	.	.	.	.	.	.
8GG#'	8G#'	8G#'	8B'	16.ff	.	.	.	.	.	.	.	.	.	.	.	.	.
.	.	.	.	32ee	.	.	.	.	.	.	.	.	.	.	.	.	.
=95	=95	=95	=95	=95	=95	=95	=95	=95	=95	=95	=95	=95	=95	=95	=95	=95	=95
8AA'	8A'	8A'	8c'	16.ee	2ryy	2ryy	2ryy	2ryy	2ryy	2ryy	2ryy	2ryy	2ryy	2ryy	2ryy	2ryy	2ryy
.	.	.	.	32dd	.	.	.	.	.	.	.	.	.	.	.	.	.
8BB'	8B'	8B'	8d'	16.dd	.	.	.	.	.	.	.	.	.	.	.	.	.
.	.	.	.	32cc	.	.	.	.	.	.	.	.	.	.	.	.	.
8C'	8c'	8c'	8e'	8cc	.	.	.	.	.	.	.	.	.	.	.	.	.
8GG#'	8G#'	8G#'	8B'	24gg	.	.	.	.	.	.	.	.	.	.	.	.	.
.	.	.	.	24ffn	.	.	.	.	.	.	.	.	.	.	.	.	.
.	.	.	.	24ee'	.	.	.	.	.	.	.	.	.	.	.	.	.
=96	=96	=96	=96	=96	=96	=96	=96	=96	=96	=96	=96	=96	=96	=96	=96	=96	=96
8AA'	8A'	8A'	8c'	24ffn	2ryy	2ryy	2ryy	2ryy	2ryy	2ryy	2ryy	2ryy	2ryy	2ryy	2ryy	2ryy	2ryy
.	.	.	.	24ee	.	.	.	.	.	.	.	.	.	.	.	.	.
.	.	.	.	24dd'	.	.	.	.	.	.	.	.	.	.	.	.	.
8BB'	8B'	8B'	8d'	24ee	.	.	.	.	.	.	.	.	.	.	.	.	.
.	.	.	.	24dd	.	.	.	.	.	.	.	.	.	.	.	.	.
.	.	.	.	24cc'	.	.	.	.	.	.	.	.	.	.	.	.	.
8C'	8c'	8c'	8e'	24dd	.	.	.	.	.	.	.	.	.	.	.	.	.
.	.	.	.	24cc	.	.	.	.	.	.	.	.	.	.	.	.	.
.	.	.	.	24b'	.	.	.	.	.	.	.	.	.	.	.	.	.
8C#'	8c#'	8e'	8g'	24cc	.	.	.	.	.	.	.	.	.	.	.	.	.
.	.	.	.	24b	.	.	.	.	.	.	.	.	.	.	.	.	.
.	.	.	.	24a'	.	.	.	.	.	.	.	.	.	.	.	.	.
=97	=97	=97	=97	=97	=97	=97	=97	=97	=97	=97	=97	=97	=97	=97	=97	=97	=97
*staff:1	*staff:1	*staff:2	*staff:3	*staff:4	*	*	*	*	*	*	*	*	*	*	*	*staff:5	*staff:5
4D	4d	4d	4f#	8..a	2ryy	2ryy	2ryy	2ryy	2ryy	2ryy	2ryy	2ryy	2ryy	2ryy	2ryy	2r	2r
.	.	.	.	32b	.	.	.	.	.	.	.	.	.	.	.	.	.
4r	4r	4r	4r	8a	.	.	.	.	.	.	.	.	.	.	.	.	.
.	.	.	.	8a#	.	.	.	.	.	.	.	.	.	.	.	.	.
=98	=98	=98	=98	=98	=98	=98	=98	=98	=98	=98	=98	=98	=98	=98	=98	=98	=98
8GG	8G	8g	8d	8..b	2ryy	2ryy	2ryy	2ryy	2ryy	2ryy	2ryy	2ryy	2ryy	2ryy	2ryy	2ryy	8..bb
8r	8r	8r	8r	.	.	.	.	.	.	.	.	.	.	.	.	.	.
.	.	.	.	32cc	.	.	.	.	.	.	.	.	.	.	.	.	32ccc
8DD	8D	8f#	8c	24a'	.	.	.	.	.	.	.	.	.	.	.	.	24aa'
.	.	.	.	24ee'	.	.	.	.	.	.	.	.	.	.	.	.	24eee'
.	.	.	.	24dd'	.	.	.	.	.	.	.	.	.	.	.	.	24ddd'
8r	8r	8r	8r	24cc'	.	.	.	.	.	.	.	.	.	.	.	.	24ccc'
.	.	.	.	24b'	.	.	.	.	.	.	.	.	.	.	.	.	24bb'
.	.	.	.	24a'	.	.	.	.	.	.	.	.	.	.	.	.	24aa'
=99	=99	=99	=99	=99	=99	=99	=99	=99	=99	=99	=99	=99	=99	=99	=99	=99	=99
4EE	4E	4g	24B'	8g	2ryy	2ryy	2ryy	2ryy	2ryy	2ryy	2ryy	2ryy	2ryy	2ryy	2ryy	2ryy	8gg
.	.	.	24e'	.	.	.	.	.	.	.	.	.	.	.	.	.	.
.	.	.	24d'	.	.	.	.	.	.	.	.	.	.	.	.	.	.
.	.	.	24c'	8r	.	.	.	.	.	.	.	.	.	.	.	.	8r
.	.	.	24B'	.	.	.	.	.	.	.	.	.	.	.	.	.	.
.	.	.	24A'	.	.	.	.	.	.	.	.	.	.	.	.	.	.
8r	8r	8r	8G	24r	.	.	.	.	.	.	.	.	.	.	.	.	24r
.	.	.	.	24ee'	.	.	.	.	.	.	.	.	.	.	.	.	24eee'
.	.	.	.	24dd'	.	.	.	.	.	.	.	.	.	.	.	.	24ddd'
8CCz	8Cz	8G	8e	24cc'	.	.	.	.	.	.	.	.	.	.	.	.	24ccc'
.	.	.	.	24b'	.	.	.	.	.	.	.	.	.	.	.	.	24bb'
.	.	.	.	24a'	.	.	.	.	.	.	.	.	.	.	.	.	24aa'
=100	=100	=100	=100	=100	=100	=100	=100	=100	=100	=100	=100	=100	=100	=100	=100	=100	=100
8C	8c	8A	8d	24g	2ryy	2ryy	2ryy	2ryy	2ryy	2ryy	2ryy	2ryy	2ryy	2ryy	2ryy	2ryy	24gg
.	.	.	.	24f#	.	.	.	.	.	.	.	.	.	.	.	.	24ff#
.	.	.	.	24a'	.	.	.	.	.	.	.	.	.	.	.	.	24aa'
8BB'	8B'	8B'	8d'	24a	.	.	.	.	.	.	.	.	.	.	.	.	24aa
.	.	.	.	24g	.	.	.	.	.	.	.	.	.	.	.	.	24gg
.	.	.	.	24dd'	.	.	.	.	.	.	.	.	.	.	.	.	24ddd'
8FF#'	8F#'	8D'	8a'	24dd	.	.	.	.	.	.	.	.	.	.	.	.	24ddd
.	.	.	.	24cc	.	.	.	.	.	.	.	.	.	.	.	.	24ccc
.	.	.	.	24cc'	.	.	.	.	.	.	.	.	.	.	.	.	24ccc'
8GG'	8G'	8D'	8g'	24cc	.	.	.	.	.	.	.	.	.	.	.	.	24ccc
.	.	.	.	24b	.	.	.	.	.	.	.	.	.	.	.	.	24bb
.	.	.	.	24b'	.	.	.	.	.	.	.	.	.	.	.	.	24bb'
=101	=101	=101	=101	=101	=101	=101	=101	=101	=101	=101	=101	=101	=101	=101	=101	=101	=101
4DD	4D	4D	8..g	8..b	2ryy	2ryy	2ryy	2ryy	2ryy	2ryy	2ryy	2ryy	2ryy	2ryy	2ryy	2ryy	8..bb
.	.	.	32a	32cc	.	.	.	.	.	.	.	.	.	.	.	.	32ccc
4r	4r	4r	8f#'	8a	.	.	.	.	.	.	.	.	.	.	.	.	8aa
.	.	.	8r	8b	.	.	.	.	.	.	.	.	.	.	.	.	8r
=102	=102	=102	=102	=102	=102	=102	=102	=102	=102	=102	=102	=102	=102	=102	=102	=102	=102
4.DD	4.D	2A	24f#	8..cc	2ryy	2ryy	2ryy	2ryy	2ryy	2ryy	2ryy	2ryy	2ryy	2ryy	2ryy	2r	2r
.	.	.	24a	.	.	.	.	.	.	.	.	.	.	.	.	.	.
.	.	.	24cc	.	.	.	.	.	.	.	.	.	.	.	.	.	.
.	.	.	24b	.	.	.	.	.	.	.	.	.	.	.	.	.	.
.	.	.	24a	.	.	.	.	.	.	.	.	.	.	.	.	.	.
.	.	.	24g	.	.	.	.	.	.	.	.	.	.	.	.	.	.
.	.	.	.	32dd	.	.	.	.	.	.	.	.	.	.	.	.	.
.	.	.	24f#	8cc	.	.	.	.	.	.	.	.	.	.	.	.	.
.	.	.	24e	.	.	.	.	.	.	.	.	.	.	.	.	.	.
.	.	.	24d	.	.	.	.	.	.	.	.	.	.	.	.	.	.
8CC	8C	.	24a	8cc#	.	.	.	.	.	.	.	.	.	.	.	.	.
.	.	.	24f#	.	.	.	.	.	.	.	.	.	.	.	.	.	.
.	.	.	24d	.	.	.	.	.	.	.	.	.	.	.	.	.	.
=103	=103	=103	=103	=103	=103	=103	=103	=103	=103	=103	=103	=103	=103	=103	=103	=103	=103
*staff:12	*staff:12	*staff:13	*staff:14	*staff:15	*	*	*	*	*	*	*	*	*	*	*	*	*
[2BBB	[2BB	[2G	24g	[2dd	2ryy	2ryy	2ryy	2ryy	2ryy	2ryy	2ryy	2ryy	2ryy	2ryy	2ryy	2ryy	2ryy
.	.	.	24d	.	.	.	.	.	.	.	.	.	.	.	.	.	.
.	.	.	24B	.	.	.	.	.	.	.	.	.	.	.	.	.	.
.	.	.	24G	.	.	.	.	.	.	.	.	.	.	.	.	.	.
.	.	.	24B	.	.	.	.	.	.	.	.	.	.	.	.	.	.
.	.	.	24d	.	.	.	.	.	.	.	.	.	.	.	.	.	.
.	.	.	24g	.	.	.	.	.	.	.	.	.	.	.	.	.	.
.	.	.	24d	.	.	.	.	.	.	.	.	.	.	.	.	.	.
.	.	.	24B	.	.	.	.	.	.	.	.	.	.	.	.	.	.
.	.	.	24G	.	.	.	.	.	.	.	.	.	.	.	.	.	.
.	.	.	24B	.	.	.	.	.	.	.	.	.	.	.	.	.	.
.	.	.	24d	.	.	.	.	.	.	.	.	.	.	.	.	.	.
=104	=104	=104	=104	=104	=104	=104	=104	=104	=104	=104	=104	=104	=104	=104	=104	=104	=104
8BBB]	8BB]	8G]	24g	8dd]	2ryy	2ryy	2ryy	2ryy	2ryy	2ryy	2ryy	2ryy	2ryy	2ryy	2ryy	2ryy	2ryy
.	.	.	24d	.	.	.	.	.	.	.	.	.	.	.	.	.	.
.	.	.	24B	.	.	.	.	.	.	.	.	.	.	.	.	.	.
8BBB'	8BB'	8G'	24G	8dd'	.	.	.	.	.	.	.	.	.	.	.	.	.
.	.	.	24B	.	.	.	.	.	.	.	.	.	.	.	.	.	.
.	.	.	24d	.	.	.	.	.	.	.	.	.	.	.	.	.	.
8BBB'	8BB'	8G'	24g	8dd'	.	.	.	.	.	.	.	.	.	.	.	.	.
.	.	.	24d	.	.	.	.	.	.	.	.	.	.	.	.	.	.
.	.	.	24B	.	.	.	.	.	.	.	.	.	.	.	.	.	.
8BBB'	8BB'	8G'	24G	16dd	.	.	.	.	.	.	.	.	.	.	.	.	.
.	.	.	24B	.	.	.	.	.	.	.	.	.	.	.	.	.	.
.	.	.	.	16ee-	.	.	.	.	.	.	.	.	.	.	.	.	.
.	.	.	24d	.	.	.	.	.	.	.	.	.	.	.	.	.	.
=105	=105	=105	=105	=105	=105	=105	=105	=105	=105	=105	=105	=105	=105	=105	=105	=105	=105
[2CC	[2C	[2G	24g	[2ee-	2ryy	2ryy	2ryy	2ryy	2ryy	2ryy	2ryy	2ryy	2ryy	2ryy	2ryy	2ryy	2ryy
.	.	.	24e-	.	.	.	.	.	.	.	.	.	.	.	.	.	.
.	.	.	24c	.	.	.	.	.	.	.	.	.	.	.	.	.	.
.	.	.	24G	.	.	.	.	.	.	.	.	.	.	.	.	.	.
.	.	.	24c	.	.	.	.	.	.	.	.	.	.	.	.	.	.
.	.	.	24e-	.	.	.	.	.	.	.	.	.	.	.	.	.	.
.	.	.	24g	.	.	.	.	.	.	.	.	.	.	.	.	.	.
.	.	.	24e-	.	.	.	.	.	.	.	.	.	.	.	.	.	.
.	.	.	24c	.	.	.	.	.	.	.	.	.	.	.	.	.	.
.	.	.	24G	.	.	.	.	.	.	.	.	.	.	.	.	.	.
.	.	.	24c	.	.	.	.	.	.	.	.	.	.	.	.	.	.
.	.	.	24e-	.	.	.	.	.	.	.	.	.	.	.	.	.	.
=106	=106	=106	=106	=106	=106	=106	=106	=106	=106	=106	=106	=106	=106	=106	=106	=106	=106
8CC]	8C]	8G]	24g	8ee-]	2ryy	2ryy	2ryy	2ryy	2ryy	2ryy	2ryy	2ryy	2ryy	2ryy	2ryy	2ryy	2ryy
.	.	.	24e-	.	.	.	.	.	.	.	.	.	.	.	.	.	.
.	.	.	24c	.	.	.	.	.	.	.	.	.	.	.	.	.	.
8CC	8C	8G	24G	8ee-'	.	.	.	.	.	.	.	.	.	.	.	.	.
.	.	.	24c	.	.	.	.	.	.	.	.	.	.	.	.	.	.
.	.	.	24e-	.	.	.	.	.	.	.	.	.	.	.	.	.	.
8CC	8C	8G	24g	8ee-'	.	.	.	.	.	.	.	.	.	.	.	.	.
.	.	.	24e-	.	.	.	.	.	.	.	.	.	.	.	.	.	.
.	.	.	24c	.	.	.	.	.	.	.	.	.	.	.	.	.	.
8CC	8C	8G	24G	8ee-'	.	.	.	.	.	.	.	.	.	.	.	.	.
.	.	.	24c	.	.	.	.	.	.	.	.	.	.	.	.	.	.
.	.	.	24e-	.	.	.	.	.	.	.	.	.	.	.	.	.	.
=107	=107	=107	=107	=107	=107	=107	=107	=107	=107	=107	=107	=107	=107	=107	=107	=107	=107
[2CC	[2C	[2A-	24a-	8..ee-	2ryy	2ryy	2ryy	2ryy	2ryy	2ryy	2ryy	2ryy	2ryy	2ryy	2ryy	2ryy	2ryy
.	.	.	24e-	.	.	.	.	.	.	.	.	.	.	.	.	.	.
.	.	.	24c	.	.	.	.	.	.	.	.	.	.	.	.	.	.
.	.	.	24A-X	.	.	.	.	.	.	.	.	.	.	.	.	.	.
.	.	.	24c	.	.	.	.	.	.	.	.	.	.	.	.	.	.
.	.	.	24e-	.	.	.	.	.	.	.	.	.	.	.	.	.	.
.	.	.	.	32ffn	.	.	.	.	.	.	.	.	.	.	.	.	.
.	.	.	24a-	8ee-'	.	.	.	.	.	.	.	.	.	.	.	.	.
.	.	.	24e-	.	.	.	.	.	.	.	.	.	.	.	.	.	.
.	.	.	24c	.	.	.	.	.	.	.	.	.	.	.	.	.	.
.	.	.	24A-	8ee-'	.	.	.	.	.	.	.	.	.	.	.	.	.
.	.	.	24c	.	.	.	.	.	.	.	.	.	.	.	.	.	.
.	.	.	24e-	.	.	.	.	.	.	.	.	.	.	.	.	.	.
=108	=108	=108	=108	=108	=108	=108	=108	=108	=108	=108	=108	=108	=108	=108	=108	=108	=108
*staff:8	*staff:8	*staff:9	*staff:10	*staff:11	*	*	*	*	*	*	*	*	*	*	*	*	*
8CC]	8C]	8A-]	24a-	4.ee-	2ryy	2ryy	2ryy	2ryy	2ryy	2ryy	2ryy	2ryy	2ryy	2ryy	2ryy	2ryy	2ryy
.	.	.	24e-	.	.	.	.	.	.	.	.	.	.	.	.	.	.
.	.	.	24c	.	.	.	.	.	.	.	.	.	.	.	.	.	.
8CC	8C	8A-X	24A-X	.	.	.	.	.	.	.	.	.	.	.	.	.	.
.	.	.	24c	.	.	.	.	.	.	.	.	.	.	.	.	.	.
.	.	.	24e-	.	.	.	.	.	.	.	.	.	.	.	.	.	.
8CC	8C	8A-	24a-	.	.	.	.	.	.	.	.	.	.	.	.	.	.
.	.	.	24e-	.	.	.	.	.	.	.	.	.	.	.	.	.	.
.	.	.	24c	.	.	.	.	.	.	.	.	.	.	.	.	.	.
8CC	8C	8A-	24A-	8een	.	.	.	.	.	.	.	.	.	.	.	.	.
.	.	.	24c	.	.	.	.	.	.	.	.	.	.	.	.	.	.
.	.	.	24e-	.	.	.	.	.	.	.	.	.	.	.	.	.	.
=109	=109	=109	=109	=109	=109	=109	=109	=109	=109	=109	=109	=109	=109	=109	=109	=109	=109
[2DD-	[2D-	[2A-	24a-	[2ffn	2ryy	2ryy	2ryy	2ryy	2ryy	2ryy	2ryy	2ryy	2ryy	2ryy	2ryy	2ryy	2ryy
.	.	.	24fn	.	.	.	.	.	.	.	.	.	.	.	.	.	.
.	.	.	24d-	.	.	.	.	.	.	.	.	.	.	.	.	.	.
.	.	.	24A-X	.	.	.	.	.	.	.	.	.	.	.	.	.	.
.	.	.	24d-	.	.	.	.	.	.	.	.	.	.	.	.	.	.
.	.	.	24f	.	.	.	.	.	.	.	.	.	.	.	.	.	.
.	.	.	24a-	.	.	.	.	.	.	.	.	.	.	.	.	.	.
.	.	.	24f	.	.	.	.	.	.	.	.	.	.	.	.	.	.
.	.	.	24d-	.	.	.	.	.	.	.	.	.	.	.	.	.	.
.	.	.	24A-	.	.	.	.	.	.	.	.	.	.	.	.	.	.
.	.	.	24d-	.	.	.	.	.	.	.	.	.	.	.	.	.	.
.	.	.	24f	.	.	.	.	.	.	.	.	.	.	.	.	.	.
=110	=110	=110	=110	=110	=110	=110	=110	=110	=110	=110	=110	=110	=110	=110	=110	=110	=110
8DD-]	8D-]	8A-]	24a-	8ff]	2ryy	2ryy	2ryy	2ryy	2ryy	2ryy	2ryy	2ryy	2ryy	2ryy	2ryy	2ryy	2ryy
.	.	.	24fn	.	.	.	.	.	.	.	.	.	.	.	.	.	.
.	.	.	24d-	.	.	.	.	.	.	.	.	.	.	.	.	.	.
8DD-	8D-	8A-	24A-X	8ffn'	.	.	.	.	.	.	.	.	.	.	.	.	.
.	.	.	24d-	.	.	.	.	.	.	.	.	.	.	.	.	.	.
.	.	.	24f	.	.	.	.	.	.	.	.	.	.	.	.	.	.
8DD-	8D-	8A-	24a-	8ff'	.	.	.	.	.	.	.	.	.	.	.	.	.
.	.	.	24f	.	.	.	.	.	.	.	.	.	.	.	.	.	.
.	.	.	24d-	.	.	.	.	.	.	.	.	.	.	.	.	.	.
8DD-	8D-	8A-	24A-	8ff'	.	.	.	.	.	.	.	.	.	.	.	.	.
.	.	.	24d-	.	.	.	.	.	.	.	.	.	.	.	.	.	.
.	.	.	24f	.	.	.	.	.	.	.	.	.	.	.	.	.	.
=111	=111	=111	=111	=111	=111	=111	=111	=111	=111	=111	=111	=111	=111	=111	=111	=111	=111
[2DD-	[2D-	[2A-	24a-	8..ffn	2ryy	2ryy	2ryy	2ryy	2ryy	2ryy	2ryy	2ryy	2ryy	2ryy	2ryy	2ryy	2ryy
.	.	.	24fn	.	.	.	.	.	.	.	.	.	.	.	.	.	.
.	.	.	24d-	.	.	.	.	.	.	.	.	.	.	.	.	.	.
.	.	.	24A-X	.	.	.	.	.	.	.	.	.	.	.	.	.	.
.	.	.	24d-	.	.	.	.	.	.	.	.	.	.	.	.	.	.
.	.	.	24f	.	.	.	.	.	.	.	.	.	.	.	.	.	.
.	.	.	.	32gg-	.	.	.	.	.	.	.	.	.	.	.	.	.
.	.	.	24a-	8ff	.	.	.	.	.	.	.	.	.	.	.	.	.
.	.	.	24f	.	.	.	.	.	.	.	.	.	.	.	.	.	.
.	.	.	24d-	.	.	.	.	.	.	.	.	.	.	.	.	.	.
.	.	.	24A-	8ff'	.	.	.	.	.	.	.	.	.	.	.	.	.
.	.	.	24d-	.	.	.	.	.	.	.	.	.	.	.	.	.	.
.	.	.	24f	.	.	.	.	.	.	.	.	.	.	.	.	.	.
=112	=112	=112	=112	=112	=112	=112	=112	=112	=112	=112	=112	=112	=112	=112	=112	=112	=112
*staff:1	*staff:1	*staff:2	*staff:3	*staff:4	*	*	*	*	*	*staff:5	*staff:5	*	*	*staff:6	*staff:6	*staff:7	*staff:7
2DD-_	2D-_	2A-_	24a-	[2ffn	2ryy	2ryy	2ryy	2ryy	2ryy	2r	2r	2ryy	2ryy	2r	2r	2r	2r
.	.	.	24fn	.	.	.	.	.	.	.	.	.	.	.	.	.	.
.	.	.	24d-	.	.	.	.	.	.	.	.	.	.	.	.	.	.
.	.	.	24A-X	.	.	.	.	.	.	.	.	.	.	.	.	.	.
.	.	.	24d-	.	.	.	.	.	.	.	.	.	.	.	.	.	.
.	.	.	24f	.	.	.	.	.	.	.	.	.	.	.	.	.	.
.	.	.	24a-	.	.	.	.	.	.	.	.	.	.	.	.	.	.
.	.	.	24f	.	.	.	.	.	.	.	.	.	.	.	.	.	.
.	.	.	24d-	.	.	.	.	.	.	.	.	.	.	.	.	.	.
.	.	.	24A-	.	.	.	.	.	.	.	.	.	.	.	.	.	.
.	.	.	24d-	.	.	.	.	.	.	.	.	.	.	.	.	.	.
.	.	.	24f	.	.	.	.	.	.	.	.	.	.	.	.	.	.
=113	=113	=113	=113	=113	=113	=113	=113	=113	=113	=113	=113	=113	=113	=113	=113	=113	=113
2DD-;]	2D-;]	2A-;]	2a-;	2ff;]	2ryy	2ryy	2ryy	2ryy	2ryy	2r;	2r;	2ryy	2ryy	2r;	2r;	2r;	2r;
=114	=114	=114	=114	=114	=114	=114	=114	=114	=114	=114	=114	=114	=114	=114	=114	=114	=114
2r	2r	2r	2r	2r	2ryy	2ryy	2ryy	2ryy	2ryy	2c#	2c#	2ryy	2ryy	4g#	4g#	2ryy	8..ee
.	.	.	.	.	.	.	.	.	.	.	.	.	.	.	.	.	32ff#
.	.	.	.	.	.	.	.	.	.	.	.	.	.	4a	4a	.	8ee'
.	.	.	.	.	.	.	.	.	.	.	.	.	.	.	.	.	8ee'
=115	=115	=115	=115	=115	=115	=115	=115	=115	=115	=115	=115	=115	=115	=115	=115	=115	=115
2r;	2r;	2r;	2r;	2r;	2ryy	2ryy	2ryy	2ryy	2ryy	2B#;y	2B#;	2ryy	2ryy	2f#;	2a;y	2ryy	16dd#'
.	.	.	.	.	.	.	.	.	.	.	.	.	.	.	.	.	16ff#'
.	.	.	.	.	.	.	.	.	.	.	.	.	.	.	.	.	16aa'
.	.	.	.	.	.	.	.	.	.	.	.	.	.	.	.	.	16bb#'
.	.	.	.	.	.	.	.	.	.	.	.	.	.	.	.	.	4ddd#X;
=116	=116	=116	=116	=116	=116	=116	=116	=116	=116	=116	=116	=116	=116	=116	=116	=116	=116
2r	2r	2r	2r	2r	2ryy	2ryy	2ryy	2ryy	2ryy	2B	2Bn	2ryy	2ryy	2e#	2g#	2ryy	8..ddn
.	.	.	.	.	.	.	.	.	.	.	.	.	.	.	.	.	32ee
.	.	.	.	.	.	.	.	.	.	.	.	.	.	.	.	.	8dd'
.	.	.	.	.	.	.	.	.	.	.	.	.	.	.	.	.	8dd'
=117	=117	=117	=117	=117	=117	=117	=117	=117	=117	=117	=117	=117	=117	=117	=117	=117	=117
2r;	2r;	2r;	2r;	2r;	2ryy	2ryy	2ryy	2ryy	2ryy	2A#;y	2A#;	2ryy	2ryy	2f#;y	2cc#;	2ryy	16cc#'
.	.	.	.	.	.	.	.	.	.	.	.	.	.	.	.	.	16ff#'
.	.	.	.	.	.	.	.	.	.	.	.	.	.	.	.	.	16aa#'
.	.	.	.	.	.	.	.	.	.	.	.	.	.	.	.	.	16ccc#X'
.	.	.	.	.	.	.	.	.	.	.	.	.	.	.	.	.	4fff#;
=118	=118	=118	=118	=118	=118	=118	=118	=118	=118	=118	=118	=118	=118	=118	=118	=118	=118
8r	8r	[2An	[2f#X	8..cc#	2ryy	2ryy	2ryy	2ryy	2ryy	[2A	8..c#	2ryy	2ryy	2r	2r	2r	2r
8C#	8c#	.	.	.	.	.	.	.	.	.	.	.	.	.	.	.	.
.	.	.	.	32dd	.	.	.	.	.	.	32d	.	.	.	.	.	.
8AA	8A	.	.	8cc#'	.	.	.	.	.	.	8c#'	.	.	.	.	.	.
8FF#	8F#	.	.	8aa'	.	.	.	.	.	.	8c#'	.	.	.	.	.	.
=119	=119	=119	=119	=119	=119	=119	=119	=119	=119	=119	=119	=119	=119	=119	=119	=119	=119
*staff:9	*staff:9	*staff:10	*staff:11	*staff:12	*staff:13	*	*	*staff:14	*staff:14	*staff:15	*staff:15	*	*	*staff:16	*staff:16	*staff:17	*staff:17
8r	8r	2An]	2f#]	8..dd	2r	2ryy	2ryy	2r	2r	2A]	8..d	2ryy	2ryy	2r	2r	2r	2r
8D	8d	.	.	.	.	.	.	.	.	.	.	.	.	.	.	.	.
.	.	.	.	32ee	.	.	.	.	.	.	32e	.	.	.	.	.	.
8AA	8A	.	.	8dd'	.	.	.	.	.	.	8d'	.	.	.	.	.	.
8FF#	8F#	.	.	8aa'	.	.	.	.	.	.	8d'	.	.	.	.	.	.
=120	=120	=120	=120	=120	=120	=120	=120	=120	=120	=120	=120	=120	=120	=120	=120	=120	=120
[2DD	[2D	[2cn	[2A [2f#	8..ccn	2r	2ryy	2ryy	2r	2r	[2F#	8..cn	2ryy	2ryy	2r	2r	2r	2r
.	.	.	.	32dd	.	.	.	.	.	.	32d	.	.	.	.	.	.
.	.	.	.	8cc'	.	.	.	.	.	.	8c'	.	.	.	.	.	.
.	.	.	.	8aa'	.	.	.	.	.	.	8c'	.	.	.	.	.	.
=121	=121	=121	=121	=121	=121	=121	=121	=121	=121	=121	=121	=121	=121	=121	=121	=121	=121
2DD]	2D]	2c]	2A] 2f#]	8cc'	32D	2ryy	2ryy	2r	2r	2F#]	2c	2ryy	2ryy	2ff#	2aa	2cccn	2cccn
.	.	.	.	.	32D	.	.	.	.	.	.	.	.	.	.	.	.
.	.	.	.	.	32D	.	.	.	.	.	.	.	.	.	.	.	.
.	.	.	.	.	32D	.	.	.	.	.	.	.	.	.	.	.	.
.	.	.	.	8aa'	32D	.	.	.	.	.	.	.	.	.	.	.	.
.	.	.	.	.	32D	.	.	.	.	.	.	.	.	.	.	.	.
.	.	.	.	.	32D	.	.	.	.	.	.	.	.	.	.	.	.
.	.	.	.	.	32D	.	.	.	.	.	.	.	.	.	.	.	.
.	.	.	.	8cc'	32D	.	.	.	.	.	.	.	.	.	.	.	.
.	.	.	.	.	32D	.	.	.	.	.	.	.	.	.	.	.	.
.	.	.	.	.	32D	.	.	.	.	.	.	.	.	.	.	.	.
.	.	.	.	.	32D	.	.	.	.	.	.	.	.	.	.	.	.
.	.	.	.	8aa'	32D	.	.	.	.	.	.	.	.	.	.	.	.
.	.	.	.	.	32D	.	.	.	.	.	.	.	.	.	.	.	.
.	.	.	.	.	32D	.	.	.	.	.	.	.	.	.	.	.	.
.	.	.	.	.	32D	.	.	.	.	.	.	.	.	.	.	.	.
=122	=122	=122	=122	=122	=122	=122	=122	=122	=122	=122	=122	=122	=122	=122	=122	=122	=122
8GG	8G	8G	8B 8d	8..bn	4D	2ryy	2ryy	4g	4b	8G	8..B	2ryy	2ryy	4gg	4bb	8..bb	8..bb
8r	8r	8r	8r	.	.	.	.	.	.	8r	.	.	.	.	.	.	.
.	.	.	.	32cc	.	.	.	.	.	.	32c	.	.	.	.	32ccc	32ccc
8DD	8D	8f#	8c	24a'	4r	.	.	4d	4a	4r	24A'	.	.	96ryy	4r	24aa'	24aa'
.	.	.	.	.	.	.	.	.	.	.	.	.	.	96ryy	.	.	.
.	.	.	.	.	.	.	.	.	.	.	.	.	.	96ryy	.	.	.
.	.	.	.	.	.	.	.	.	.	.	.	.	.	96ryy	.	.	.
.	.	.	.	24ee'	.	.	.	.	.	.	24e'	.	.	96ryy	.	24eee'	24eee'
.	.	.	.	.	.	.	.	.	.	.	.	.	.	96ryy	.	.	.
.	.	.	.	.	.	.	.	.	.	.	.	.	.	96ryy	.	.	.
.	.	.	.	.	.	.	.	.	.	.	.	.	.	96ryy	.	.	.
.	.	.	.	24dd'	.	.	.	.	.	.	24d'	.	.	96ryy	.	24ddd'	24ddd'
.	.	.	.	.	.	.	.	.	.	.	.	.	.	96ryy	.	.	.
.	.	.	.	.	.	.	.	.	.	.	.	.	.	96ryy	.	.	.
.	.	.	.	.	.	.	.	.	.	.	.	.	.	96ryy	.	.	.
8r	8r	8r	8r	24cc'	.	.	.	.	.	.	24c'	.	.	96ryy	.	24ccc'	24ccc'
.	.	.	.	.	.	.	.	.	.	.	.	.	.	96ryy	.	.	.
.	.	.	.	.	.	.	.	.	.	.	.	.	.	96ryy	.	.	.
.	.	.	.	.	.	.	.	.	.	.	.	.	.	96ryy	.	.	.
.	.	.	.	24b'	.	.	.	.	.	.	24B'	.	.	96ryy	.	24bb	24bb
.	.	.	.	.	.	.	.	.	.	.	.	.	.	96ryy	.	.	.
.	.	.	.	.	.	.	.	.	.	.	.	.	.	96ryy	.	.	.
.	.	.	.	.	.	.	.	.	.	.	.	.	.	96ryy	.	.	.
.	.	.	.	24a'	.	.	.	.	.	.	24A'	.	.	96ryy	.	24aa'	24aa'
.	.	.	.	.	.	.	.	.	.	.	.	.	.	96ryy	.	.	.
.	.	.	.	.	.	.	.	.	.	.	.	.	.	96ryy	.	.	.
.	.	.	.	.	.	.	.	.	.	.	.	.	.	96ryy	.	.	.
!!WARNING: This measure contained too few data records
=123	=123	=123	=123	=123	=123	=123	=123	=123	=123	=123	=123	=123	=123	=123	=123	=123	=123
8EE	8E	8g	24B	8g	2r	2ryy	2ryy	4B	4g	4r	8G	2ryy	2ryy	2r	2r	8gg	8gg
.	.	.	24e'	.	.	.	.	.	.	.	.	.	.	.	.	.	.
.	.	.	24d'	.	.	.	.	.	.	.	.	.	.	.	.	.	.
8r	8r	8r	24c'	8r	.	.	.	.	.	.	8r	.	.	.	.	8r	8r
.	.	.	24B'	.	.	.	.	.	.	.	.	.	.	.	.	.	.
.	.	.	24A'	.	.	.	.	.	.	.	.	.	.	.	.	.	.
8r	8r	8r	8G'	24r	.	.	.	4ryy	4r	24r	24r	.	.	.	.	24r	24r
.	.	.	.	24ee'	.	.	.	.	.	24e'	24e'	.	.	.	.	24eee'	24eee'
.	.	.	.	24dd'	.	.	.	.	.	24d'	24d'	.	.	.	.	24ddd'	24ddd'
8CCz	8Cz	8Gz	8e	24cc'	.	.	.	.	.	24c'	24c'	.	.	.	.	24ccc'	24ccc'
.	.	.	.	24b'	.	.	.	.	.	24B'	24B'	.	.	.	.	24bb'	24bb'
.	.	.	.	24a'	.	.	.	.	.	24A'	24A'	.	.	.	.	24aa'	24aa'
=124	=124	=124	=124	=124	=124	=124	=124	=124	=124	=124	=124	=124	=124	=124	=124	=124	=124
8C	8c	8A	8d	24g	2r	2ryy	2ryy	8d	8a	24G	24G	2ryy	2ryy	2r	2r	24gg	24gg
.	.	.	.	24f#	.	.	.	.	.	24F#	24F#	.	.	.	.	24ff#	24ff#
.	.	.	.	24a'	.	.	.	.	.	24A'	24A'	.	.	.	.	24aa'	24aa'
8BB'	8B'	8B'	8d'	24a	.	.	.	8g	8b	24A	24A	.	.	.	.	24aa	24aa
.	.	.	.	24g	.	.	.	.	.	24G	24G	.	.	.	.	24gg	24gg
.	.	.	.	24dd'	.	.	.	.	.	24d'	24d'	.	.	.	.	24ddd'	24ddd'
8FF#'	8F#'	8D'	8a'	24dd	.	.	.	8a	8cc	24d	24d	.	.	.	.	24ddd	24ddd
.	.	.	.	24cc	.	.	.	.	.	24c	24c	.	.	.	.	24ccc	24ccc
.	.	.	.	24cc'	.	.	.	.	.	24c'	24c'	.	.	.	.	24ccc'	24ccc'
8GG'	8G'	8D'	8g'	24cc	.	.	.	8g	8b	24c	24c	.	.	.	.	24ccc	24ccc
.	.	.	.	24b	.	.	.	.	.	24B	24B	.	.	.	.	24bb	24bb
.	.	.	.	24b'	.	.	.	.	.	24B'	24B'	.	.	.	.	24bb'	24bb'
=125	=125	=125	=125	=125	=125	=125	=125	=125	=125	=125	=125	=125	=125	=125	=125	=125	=125
*staff:1	*staff:1	*staff:2	*staff:3	*staff:4	*	*	*	*staff:5	*staff:5	*staff:6	*staff:6	*	*	*staff:7	*staff:7	*staff:8	*staff:8
4DD	4D	4D	8..g	8..b	2ryy	2ryy	2ryy	4g	8..b	8..B	8..B	2ryy	2ryy	2r	2r	8..bb	8..bb
.	.	.	32a	32cc	.	.	.	.	32cc	32c	32c	.	.	.	.	32ccc	32ccc
4r	4r	4r	8f#	8a'	.	.	.	8d	8a	8A'	8A'	.	.	.	.	8aa'	8aa'
.	.	.	8r	8b'	.	.	.	8ryy	8r	8B'	8B'	.	.	.	.	8bb'	8bb'
=126	=126	=126	=126	=126	=126	=126	=126	=126	=126	=126	=126	=126	=126	=126	=126	=126	=126
4.DD	4.D	2A	24f#	8..cc	2ryy	2ryy	2ryy	2d	2a	8..c	8..c	2ryy	2ryy	8f#	8..cc	8..ccc	8..ccc
.	.	.	24a	.	.	.	.	.	.	.	.	.	.	.	.	.	.
.	.	.	24cc	.	.	.	.	.	.	.	.	.	.	.	.	.	.
.	.	.	24b	.	.	.	.	.	.	.	.	.	.	8a'	.	.	.
.	.	.	24a	.	.	.	.	.	.	.	.	.	.	.	.	.	.
.	.	.	24g	.	.	.	.	.	.	.	.	.	.	.	.	.	.
.	.	.	.	32dd	.	.	.	.	.	32d	32d	.	.	.	32dd	32ddd	32ddd
.	.	.	24f#	8cc'	.	.	.	.	.	8c'	8c'	.	.	96ryy	8cc'	8ccc'	8ccc'
.	.	.	.	.	.	.	.	.	.	.	.	.	.	96ryy	.	.	.
.	.	.	.	.	.	.	.	.	.	.	.	.	.	96ryy	.	.	.
.	.	.	.	.	.	.	.	.	.	.	.	.	.	96ryy	.	.	.
.	.	.	24e	.	.	.	.	.	.	.	.	.	.	96ryy	.	.	.
.	.	.	.	.	.	.	.	.	.	.	.	.	.	96ryy	.	.	.
.	.	.	.	.	.	.	.	.	.	.	.	.	.	96ryy	.	.	.
.	.	.	.	.	.	.	.	.	.	.	.	.	.	96ryy	.	.	.
.	.	.	24d	.	.	.	.	.	.	.	.	.	.	96ryy	.	.	.
.	.	.	.	.	.	.	.	.	.	.	.	.	.	96ryy	.	.	.
.	.	.	.	.	.	.	.	.	.	.	.	.	.	96ryy	.	.	.
.	.	.	.	.	.	.	.	.	.	.	.	.	.	96ryy	.	.	.
8CC	8C	.	24a	8cc#'	.	.	.	.	.	8c#'	8c#'	.	.	96ryy	8cc#'	8ccc#'	8ccc#'
.	.	.	.	.	.	.	.	.	.	.	.	.	.	96ryy	.	.	.
.	.	.	.	.	.	.	.	.	.	.	.	.	.	96ryy	.	.	.
.	.	.	.	.	.	.	.	.	.	.	.	.	.	96ryy	.	.	.
.	.	.	24f#	.	.	.	.	.	.	.	.	.	.	96ryy	.	.	.
.	.	.	.	.	.	.	.	.	.	.	.	.	.	96ryy	.	.	.
.	.	.	.	.	.	.	.	.	.	.	.	.	.	96ryy	.	.	.
.	.	.	.	.	.	.	.	.	.	.	.	.	.	96ryy	.	.	.
.	.	.	24d	.	.	.	.	.	.	.	.	.	.	96ryy	.	.	.
.	.	.	.	.	.	.	.	.	.	.	.	.	.	96ryy	.	.	.
.	.	.	.	.	.	.	.	.	.	.	.	.	.	96ryy	.	.	.
.	.	.	.	.	.	.	.	.	.	.	.	.	.	96ryy	.	.	.
!!WARNING: This measure contained too few data records
=127	=127	=127	=127	=127	=127	=127	=127	=127	=127	=127	=127	=127	=127	=127	=127	=127	=127
2BBB	2BB	2G	24g	8..dd	2ryy	2ryy	2ryy	4g	4b	8..d	8..d	2ryy	2ryy	8d	8..dd	8..ddd	8..ddd
.	.	.	24d	.	.	.	.	.	.	.	.	.	.	.	.	.	.
.	.	.	24B	.	.	.	.	.	.	.	.	.	.	.	.	.	.
.	.	.	24G	.	.	.	.	.	.	.	.	.	.	4g	.	.	.
.	.	.	24B	.	.	.	.	.	.	.	.	.	.	.	.	.	.
.	.	.	24d	.	.	.	.	.	.	.	.	.	.	.	.	.	.
.	.	.	.	32ee	.	.	.	.	.	32e	32e	.	.	.	32ee	32eee	32eee
.	.	.	24g	8dd'	.	.	.	4ryy	4r	8d'	8d'	.	.	.	8dd'	8ddd'	8ddd'
.	.	.	24G	.	.	.	.	.	.	.	.	.	.	.	.	.	.
.	.	.	24g'	.	.	.	.	.	.	.	.	.	.	.	.	.	.
.	.	.	24g	8dd#'	.	.	.	.	.	8d#'	8d#'	.	.	8g	8dd#'	8ddd#'	8ddd#'
.	.	.	24G	.	.	.	.	.	.	.	.	.	.	.	.	.	.
.	.	.	24g'	.	.	.	.	.	.	.	.	.	.	.	.	.	.
=128	=128	=128	=128	=128	=128	=128	=128	=128	=128	=128	=128	=128	=128	=128	=128	=128	=128
2CC	2C	2g	24g	2dd#	2ryy	2ryy	2ryy	2g	2g	2d#	2d#	2ryy	2ryy	2g	2dd#	2ddd#	2ddd#
.	.	.	24G	.	.	.	.	.	.	.	.	.	.	.	.	.	.
.	.	.	24g'	.	.	.	.	.	.	.	.	.	.	.	.	.	.
.	.	.	24g	.	.	.	.	.	.	.	.	.	.	.	.	.	.
.	.	.	24G	.	.	.	.	.	.	.	.	.	.	.	.	.	.
.	.	.	24g'	.	.	.	.	.	.	.	.	.	.	.	.	.	.
.	.	.	24g	.	.	.	.	.	.	.	.	.	.	.	.	.	.
.	.	.	24G	.	.	.	.	.	.	.	.	.	.	.	.	.	.
.	.	.	24g'	.	.	.	.	.	.	.	.	.	.	.	.	.	.
.	.	.	24g	.	.	.	.	.	.	.	.	.	.	.	.	.	.
.	.	.	24G	.	.	.	.	.	.	.	.	.	.	.	.	.	.
.	.	.	24g'	.	.	.	.	.	.	.	.	.	.	.	.	.	.
=129	=129	=129	=129	=129	=129	=129	=129	=129	=129	=129	=129	=129	=129	=129	=129	=129	=129
[2CC	[2C	4.d#	24d#'	4.ff#X	2ryy	2ryy	2ryy	4.a	4.a	4.d#	4.d#	2ryy	2ryy	4.a	4.dd#	4.fff#X	4.fff#X
.	.	.	24f#'	.	.	.	.	.	.	.	.	.	.	.	.	.	.
.	.	.	24a'	.	.	.	.	.	.	.	.	.	.	.	.	.	.
.	.	.	24d#'	.	.	.	.	.	.	.	.	.	.	.	.	.	.
.	.	.	24f#'	.	.	.	.	.	.	.	.	.	.	.	.	.	.
.	.	.	24a'	.	.	.	.	.	.	.	.	.	.	.	.	.	.
.	.	.	24d#'	.	.	.	.	.	.	.	.	.	.	.	.	.	.
.	.	.	24f#'	.	.	.	.	.	.	.	.	.	.	.	.	.	.
.	.	.	24a'	.	.	.	.	.	.	.	.	.	.	.	.	.	.
.	.	8e	24g	8ee	.	.	.	8g	8g	8e	8e	.	.	8g	8ee	8eee	8eee
.	.	.	24G	.	.	.	.	.	.	.	.	.	.	.	.	.	.
.	.	.	24g'	.	.	.	.	.	.	.	.	.	.	.	.	.	.
=130	=130	=130	=130	=130	=130	=130	=130	=130	=130	=130	=130	=130	=130	=130	=130	=130	=130
*staff:11	*staff:11	*staff:12	*staff:13	*staff:14	*	*	*	*staff:15	*staff:15	*staff:16	*staff:16	*	*	*staff:17	*staff:17	*staff:18	*staff:18
2CC_	2C_	[2e	24g	[2ee	2ryy	2ryy	2ryy	[2g	[2g	2e	[2e	2ryy	2ryy	2g	[2ee	4eee	4eee
.	.	.	24G	.	.	.	.	.	.	.	.	.	.	.	.	.	.
.	.	.	24g	.	.	.	.	.	.	.	.	.	.	.	.	.	.
.	.	.	24g	.	.	.	.	.	.	.	.	.	.	.	.	.	.
.	.	.	24G	.	.	.	.	.	.	.	.	.	.	.	.	.	.
.	.	.	24g'	.	.	.	.	.	.	.	.	.	.	.	.	.	.
.	.	.	24g	.	.	.	.	.	.	.	.	.	.	.	.	4r	4r
.	.	.	24G	.	.	.	.	.	.	.	.	.	.	.	.	.	.
.	.	.	24g'	.	.	.	.	.	.	.	.	.	.	.	.	.	.
.	.	.	24g	.	.	.	.	.	.	.	.	.	.	.	.	.	.
.	.	.	24G	.	.	.	.	.	.	.	.	.	.	.	.	.	.
.	.	.	24g'	.	.	.	.	.	.	.	.	.	.	.	.	.	.
=131	=131	=131	=131	=131	=131	=131	=131	=131	=131	=131	=131	=131	=131	=131	=131	=131	=131
2CC_	2C_	2e_	[2g	2ee_	2ryy	2ryy	2ryy	4g]	4g]	4e	4e]	2ryy	2ryy	4g	4ee]	24g	24g
.	.	.	.	.	.	.	.	.	.	.	.	.	.	.	.	24e	24e
.	.	.	.	.	.	.	.	.	.	.	.	.	.	.	.	24cc'	24cc'
.	.	.	.	.	.	.	.	.	.	.	.	.	.	.	.	24cc	24cc
.	.	.	.	.	.	.	.	.	.	.	.	.	.	.	.	24g	24g
.	.	.	.	.	.	.	.	.	.	.	.	.	.	.	.	24ee'	24ee'
.	.	.	.	.	.	.	.	4r	4r	4ryy	4r	.	.	96ryy	4r	24ee	24ee
.	.	.	.	.	.	.	.	.	.	.	.	.	.	96ryy	.	.	.
.	.	.	.	.	.	.	.	.	.	.	.	.	.	96ryy	.	.	.
.	.	.	.	.	.	.	.	.	.	.	.	.	.	96ryy	.	.	.
.	.	.	.	.	.	.	.	.	.	.	.	.	.	96ryy	.	24cc	24cc
.	.	.	.	.	.	.	.	.	.	.	.	.	.	96ryy	.	.	.
.	.	.	.	.	.	.	.	.	.	.	.	.	.	96ryy	.	.	.
.	.	.	.	.	.	.	.	.	.	.	.	.	.	96ryy	.	.	.
.	.	.	.	.	.	.	.	.	.	.	.	.	.	96ryy	.	24ee'	24ee'
.	.	.	.	.	.	.	.	.	.	.	.	.	.	96ryy	.	.	.
.	.	.	.	.	.	.	.	.	.	.	.	.	.	96ryy	.	.	.
.	.	.	.	.	.	.	.	.	.	.	.	.	.	96ryy	.	.	.
.	.	.	.	.	.	.	.	.	.	.	.	.	.	96ryy	.	24gg	24gg
.	.	.	.	.	.	.	.	.	.	.	.	.	.	96ryy	.	.	.
.	.	.	.	.	.	.	.	.	.	.	.	.	.	96ryy	.	.	.
.	.	.	.	.	.	.	.	.	.	.	.	.	.	96ryy	.	.	.
.	.	.	.	.	.	.	.	.	.	.	.	.	.	96ryy	.	24ee	24ee
.	.	.	.	.	.	.	.	.	.	.	.	.	.	96ryy	.	.	.
.	.	.	.	.	.	.	.	.	.	.	.	.	.	96ryy	.	.	.
.	.	.	.	.	.	.	.	.	.	.	.	.	.	96ryy	.	.	.
.	.	.	.	.	.	.	.	.	.	.	.	.	.	96ryy	.	24ccc'	24ccc'
.	.	.	.	.	.	.	.	.	.	.	.	.	.	96ryy	.	.	.
.	.	.	.	.	.	.	.	.	.	.	.	.	.	96ryy	.	.	.
.	.	.	.	.	.	.	.	.	.	.	.	.	.	96ryy	.	.	.
!!WARNING: This measure contained too few data records
=132	=132	=132	=132	=132	=132	=132	=132	=132	=132	=132	=132	=132	=132	=132	=132	=132	=132
4CC]	4C]	4e]	4g]	4ee]	2ryy	2ryy	2ryy	2r	2r	2r	2r	2ryy	2ryy	2r	2r	24ccc	24ccc
.	.	.	.	.	.	.	.	.	.	.	.	.	.	.	.	24gg	24gg
.	.	.	.	.	.	.	.	.	.	.	.	.	.	.	.	24eee'	24eee'
.	.	.	.	.	.	.	.	.	.	.	.	.	.	.	.	24eee	24eee
.	.	.	.	.	.	.	.	.	.	.	.	.	.	.	.	24ccc	24ccc
.	.	.	.	.	.	.	.	.	.	.	.	.	.	.	.	24eee'	24eee'
4r	4r	4r	4r	4r	.	.	.	.	.	.	.	.	.	.	.	24eee	24eee
.	.	.	.	.	.	.	.	.	.	.	.	.	.	.	.	24ccc	24ccc
.	.	.	.	.	.	.	.	.	.	.	.	.	.	.	.	24eee'	24eee'
.	.	.	.	.	.	.	.	.	.	.	.	.	.	.	.	24eee	24eee
.	.	.	.	.	.	.	.	.	.	.	.	.	.	.	.	24ccc	24ccc
.	.	.	.	.	.	.	.	.	.	.	.	.	.	.	.	24eee'	24eee'
=133	=133	=133	=133	=133	=133	=133	=133	=133	=133	=133	=133	=133	=133	=133	=133	=133	=133
2r	2r	2r	2r	2r	2ryy	2ryy	2ryy	2r	2r	[2c	[2c	2ryy	2ryy	[2ee	4.gg	24eee	24eee
.	.	.	.	.	.	.	.	.	.	.	.	.	.	.	.	24ccc	24ccc
.	.	.	.	.	.	.	.	.	.	.	.	.	.	.	.	24eee'	24eee'
.	.	.	.	.	.	.	.	.	.	.	.	.	.	.	.	24eee	24eee
.	.	.	.	.	.	.	.	.	.	.	.	.	.	.	.	24ccc	24ccc
.	.	.	.	.	.	.	.	.	.	.	.	.	.	.	.	24eee'	24eee'
.	.	.	.	.	.	.	.	.	.	.	.	.	.	.	.	24eee	24eee
.	.	.	.	.	.	.	.	.	.	.	.	.	.	.	.	24ccc	24ccc
.	.	.	.	.	.	.	.	.	.	.	.	.	.	.	.	24eee'	24eee'
.	.	.	.	.	.	.	.	.	.	.	.	.	.	.	8gg#	24eee	24eee
.	.	.	.	.	.	.	.	.	.	.	.	.	.	.	.	24ccc	24ccc
.	.	.	.	.	.	.	.	.	.	.	.	.	.	.	.	24eee'	24eee'
=134	=134	=134	=134	=134	=134	=134	=134	=134	=134	=134	=134	=134	=134	=134	=134	=134	=134
4.AA	4.A	4.a	8..cc	8..ee	2ryy	2ryy	2ryy	2r	2r	2c]	2c]	2ryy	2ryy	2ee]	2aa	24eee	24eee
.	.	.	.	.	.	.	.	.	.	.	.	.	.	.	.	24ccc	24ccc
.	.	.	.	.	.	.	.	.	.	.	.	.	.	.	.	24eee'	24eee'
.	.	.	.	.	.	.	.	.	.	.	.	.	.	.	.	24eee	24eee
.	.	.	.	.	.	.	.	.	.	.	.	.	.	.	.	24ccc	24ccc
.	.	.	.	.	.	.	.	.	.	.	.	.	.	.	.	24eee'	24eee'
.	.	.	32dd	32ffn	.	.	.	.	.	.	.	.	.	.	.	.	.
.	.	.	8cc'	8ee'	.	.	.	.	.	.	.	.	.	.	.	24eee	24eee
.	.	.	.	.	.	.	.	.	.	.	.	.	.	.	.	24ccc	24ccc
.	.	.	.	.	.	.	.	.	.	.	.	.	.	.	.	24eee'	24eee'
8GG	8G	8g	8cc'	8ee'	.	.	.	.	.	.	.	.	.	.	.	24eee	24eee
.	.	.	.	.	.	.	.	.	.	.	.	.	.	.	.	24ccc	24ccc
.	.	.	.	.	.	.	.	.	.	.	.	.	.	.	.	24eee'	24eee'
=135	=135	=135	=135	=135	=135	=135	=135	=135	=135	=135	=135	=135	=135	=135	=135	=135	=135
*staff:1	*staff:1	*staff:2	*staff:3	*staff:4	*staff:5	*staff:6	*staff:6	*staff:7	*staff:7	*staff:8	*staff:8	*	*	*staff:9	*staff:9	*staff:10	*staff:10
.	.	.	.	8dQ	.	.	.	.	.	.	.	.	.	.	.	.	.
.	.	.	.	8ddQ	.	.	.	.	.	.	.	.	.	.	.	.	.
4.FF#	4.F#	4.f#	4.d 4.a	4.ccc	4D	4dd	4dd	4d	4a	4.F#	4.F#	2ryy	2ryy	4.dd	4.ccc	4.ccc	4.ccc
.	.	.	.	.	4r	4r	4r	4ryy	4r	.	.	.	.	.	.	.	.
8GG	8G	8g	8b'	8bb	.	.	.	.	.	8G	8G	.	.	8dd	8bb	8bb	8bb
=136	=136	=136	=136	=136	=136	=136	=136	=136	=136	=136	=136	=136	=136	=136	=136	=136	=136
8CC	8C	8c	8cc'	8aa'	2r	2r	2r	2r	2r	8C	8C	2ryy	2ryy	8cc	8aa	8aa	8aa
8r	8r	8r	8b'	8gg'	.	.	.	.	.	8r	8r	.	.	8b	8gg	8gg	8gg
8DD	8D	8d	8a'	8ff#'	.	.	.	.	.	8D	8D	.	.	8a	8ff#	8ff#	8ff#
8r	8r	8r	8cc'	8aa'	.	.	.	.	.	8r	8r	.	.	8cc	8aa	8aa	8aa
=137	=137	=137	=137	=137	=137	=137	=137	=137	=137	=137	=137	=137	=137	=137	=137	=137	=137
4.EE	4.E	4.c#	4.cc#	4.g 4.gg	4AA	4a	4a	4G	4g	4.E	4.E	2ryy	2ryy	4cc#	4gg	4gg	4gg
.	.	.	.	.	4r	4r	4r	4ryy	4r	.	.	.	.	96ryy	4r	4r	4r
.	.	.	.	.	.	.	.	.	.	.	.	.	.	96ryy	.	.	.
.	.	.	.	.	.	.	.	.	.	.	.	.	.	96ryy	.	.	.
.	.	.	.	.	.	.	.	.	.	.	.	.	.	96ryy	.	.	.
.	.	.	.	.	.	.	.	.	.	.	.	.	.	96ryy	.	.	.
.	.	.	.	.	.	.	.	.	.	.	.	.	.	96ryy	.	.	.
.	.	.	.	.	.	.	.	.	.	.	.	.	.	96ryy	.	.	.
.	.	.	.	.	.	.	.	.	.	.	.	.	.	96ryy	.	.	.
.	.	.	.	.	.	.	.	.	.	.	.	.	.	96ryy	.	.	.
.	.	.	.	.	.	.	.	.	.	.	.	.	.	96ryy	.	.	.
.	.	.	.	.	.	.	.	.	.	.	.	.	.	96ryy	.	.	.
.	.	.	.	.	.	.	.	.	.	.	.	.	.	96ryy	.	.	.
8r	8r	[24d	24a	[24ff#	.	.	.	.	.	8r	8r	.	.	96ryy	.	.	.
.	.	.	.	.	.	.	.	.	.	.	.	.	.	96ryy	.	.	.
.	.	.	.	.	.	.	.	.	.	.	.	.	.	96ryy	.	.	.
.	.	.	.	.	.	.	.	.	.	.	.	.	.	96ryy	.	.	.
.	.	24d]	24a	24ff#]	.	.	.	.	.	.	.	.	.	96ryy	.	.	.
.	.	.	.	.	.	.	.	.	.	.	.	.	.	96ryy	.	.	.
.	.	.	.	.	.	.	.	.	.	.	.	.	.	96ryy	.	.	.
.	.	.	.	.	.	.	.	.	.	.	.	.	.	96ryy	.	.	.
.	.	24d	24a	24ff#	.	.	.	.	.	.	.	.	.	96ryy	.	.	.
.	.	.	.	.	.	.	.	.	.	.	.	.	.	96ryy	.	.	.
.	.	.	.	.	.	.	.	.	.	.	.	.	.	96ryy	.	.	.
.	.	.	.	.	.	.	.	.	.	.	.	.	.	96ryy	.	.	.
!!WARNING: This measure contained too few data records
=138	=138	=138	=138	=138	=138	=138	=138	=138	=138	=138	=138	=138	=138	=138	=138	=138	=138
4r	4r	[24e	24g	[24ee	2r	2r	2r	2r	2r	2r	2r	2ryy	2ryy	2r	2r	2r	2r
.	.	24e]	24g	24ee]	.	.	.	.	.	.	.	.	.	.	.	.	.
.	.	24e	24g	24ee	.	.	.	.	.	.	.	.	.	.	.	.	.
.	.	[24f#	24f#	[24dd	.	.	.	.	.	.	.	.	.	.	.	.	.
.	.	24f#]	24f#	24dd]	.	.	.	.	.	.	.	.	.	.	.	.	.
.	.	24f#	24f#	24dd	.	.	.	.	.	.	.	.	.	.	.	.	.
8r	8r	[24g	24e	[24cc#	.	.	.	.	.	.	.	.	.	.	.	.	.
.	.	24g]	24e	24cc#]	.	.	.	.	.	.	.	.	.	.	.	.	.
.	.	24g	24e	24cc#	.	.	.	.	.	.	.	.	.	.	.	.	.
24C#	[24c#	[24c#	24g	[24ee	.	.	.	.	.	.	.	.	.	.	.	.	.
24C#	24c#]	24c#]	24g	24ee]	.	.	.	.	.	.	.	.	.	.	.	.	.
24C#	24c#	24c#	24g	24ee	.	.	.	.	.	.	.	.	.	.	.	.	.
=139	=139	=139	=139	=139	=139	=139	=139	=139	=139	=139	=139	=139	=139	=139	=139	=139	=139
24D	[24d	[24d	24f#	[24dd	2r	2r	2r	2r	2r	2r	2r	2ryy	2ryy	2r	2r	2r	2r
24D	24d]	24d]	24f#	24dd]	.	.	.	.	.	.	.	.	.	.	.	.	.
24D	24d	24d	24f#	24dd	.	.	.	.	.	.	.	.	.	.	.	.	.
24FF#	[24F#	24F#	24e-	[24ccn	.	.	.	.	.	.	.	.	.	.	.	.	.
24FF#	24F#]	24F#	24e-	24cc]	.	.	.	.	.	.	.	.	.	.	.	.	.
24FF#	24F#	24F#	24e-	24cc	.	.	.	.	.	.	.	.	.	.	.	.	.
24GG	[24G	24G	24d	[24b	.	.	.	.	.	.	.	.	.	.	.	.	.
24GG	24G]	24G	24d	24b]	.	.	.	.	.	.	.	.	.	.	.	.	.
24GG	24G	24G	24d	24b	.	.	.	.	.	.	.	.	.	.	.	.	.
24EE-	[24E-	24E-	24c	24a	.	.	.	.	.	.	.	.	.	.	.	.	.
24EE-	24E-]	24E-	24c	24a	.	.	.	.	.	.	.	.	.	.	.	.	.
24EE-	24E-	24E-	24c	24a	.	.	.	.	.	.	.	.	.	.	.	.	.
=140	=140	=140	=140	=140	=140	=140	=140	=140	=140	=140	=140	=140	=140	=140	=140	=140	=140
*staff:9	*staff:9	*staff:10	*staff:11	*staff:12	*	*	*	*staff:13	*staff:13	*staff:14	*staff:14	*	*	*staff:15	*staff:15	*staff:16	*staff:16
24DD	[24D	24D	24B	24g#	2ryy	2ryy	2ryy	2r	2r	2r	2r	2ryy	2ryy	2r	2r	2r	2r
24DD	24D]	24D	24B	24g#	.	.	.	.	.	.	.	.	.	.	.	.	.
24DD	24D	24D	24B	24g#	.	.	.	.	.	.	.	.	.	.	.	.	.
24CC#	24C#	24C#	24B-	24gn	.	.	.	.	.	.	.	.	.	.	.	.	.
24CC#	24C#	24C#	24B-	24g	.	.	.	.	.	.	.	.	.	.	.	.	.
24CC#	24C#	24C#	24B-	24g	.	.	.	.	.	.	.	.	.	.	.	.	.
.	.	.	.	16aQ	.	.	.	.	.	.	.	.	.	.	.	.	.
.	.	.	.	16gQ	.	.	.	.	.	.	.	.	.	.	.	.	.
.	.	.	.	16f#Q	.	.	.	.	.	.	.	.	.	.	.	.	.
24DD	[24D	24D	8A	8g	.	.	.	.	.	.	.	.	.	.	.	.	.
24DD	24D]	24D	.	.	.	.	.	.	.	.	.	.	.	.	.	.	.
24DD	24D	24D	.	.	.	.	.	.	.	.	.	.	.	.	.	.	.
24DD	[24D	24D	8c	16a	.	.	.	.	.	.	.	.	.	.	.	.	.
24DD	24D]	24D	.	.	.	.	.	.	.	.	.	.	.	.	.	.	.
.	.	.	.	16f#	.	.	.	.	.	.	.	.	.	.	.	.	.
24DD	24D	24D	.	.	.	.	.	.	.	.	.	.	.	.	.	.	.
=141	=141	=141	=141	=141	=141	=141	=141	=141	=141	=141	=141	=141	=141	=141	=141	=141	=141
[2GGG	[2GG	8D	8B	4.G 4.g	2ryy	2ryy	2ryy	2r	2r	2ryy	8G	2ryy	2ryy	2r	2r	2ryy	4.g
.	.	8B	8d	.	.	.	.	.	.	.	8B	.	.	.	.	.	.
.	.	8d	8B	.	.	.	.	.	.	.	8d	.	.	.	.	.	.
.	.	8B	8d	16b	.	.	.	.	.	.	8B	.	.	.	.	.	16b
.	.	.	.	16dd	.	.	.	.	.	.	.	.	.	.	.	.	16dd
=142	=142	=142	=142	=142	=142	=142	=142	=142	=142	=142	=142	=142	=142	=142	=142	=142	=142
2GGG_	2GG_	2c	16d#	16dd	2ryy	2ryy	2ryy	2r	2r	2ryy	2c	2ryy	2ryy	2r	2r	2ryy	16dd
.	.	.	16e	16cc	.	.	.	.	.	.	.	.	.	.	.	.	16cc
.	.	.	16e	16cc	.	.	.	.	.	.	.	.	.	.	.	.	16cc
.	.	.	16fn	16b	.	.	.	.	.	.	.	.	.	.	.	.	16b
.	.	.	16f	16b	.	.	.	.	.	.	.	.	.	.	.	.	16b
.	.	.	16f#	16a	.	.	.	.	.	.	.	.	.	.	.	.	16a
.	.	.	16f#	16a	.	.	.	.	.	.	.	.	.	.	.	.	16a
.	.	.	16g	16g	.	.	.	.	.	.	.	.	.	.	.	.	16g
=143	=143	=143	=143	=143	=143	=143	=143	=143	=143	=143	=143	=143	=143	=143	=143	=143	=143
2GGG_	2GG_	16B	16g	4.g	2ryy	2ryy	2ryy	2r	2r	2ryy	16B	2ryy	2ryy	2r	2r	2ryy	4.g
.	.	16d	16dn	.	.	.	.	.	.	.	16d	.	.	.	.	.	.
.	.	16g	16b	.	.	.	.	.	.	.	16g	.	.	.	.	.	.
.	.	16f#	16a	.	.	.	.	.	.	.	16f#	.	.	.	.	.	.
.	.	16e	16g	.	.	.	.	.	.	.	16e	.	.	.	.	.	.
.	.	16d	16f#	.	.	.	.	.	.	.	16d	.	.	.	.	.	.
.	.	16c	16e	16b	.	.	.	.	.	.	16c	.	.	.	.	.	16b
.	.	16B	16d	16dd	.	.	.	.	.	.	16B	.	.	.	.	.	16dd
=144	=144	=144	=144	=144	=144	=144	=144	=144	=144	=144	=144	=144	=144	=144	=144	=144	=144
2GGG]	2GG]	2c	16d#	16dd	2ryy	2ryy	2ryy	2r	2r	2ryy	2c	2ryy	2ryy	2r	2r	2ryy	16dd
.	.	.	16e	16cc	.	.	.	.	.	.	.	.	.	.	.	.	16cc
.	.	.	16e	16cc	.	.	.	.	.	.	.	.	.	.	.	.	16cc
.	.	.	16fn	16b	.	.	.	.	.	.	.	.	.	.	.	.	16b
.	.	.	16f	16b	.	.	.	.	.	.	.	.	.	.	.	.	16b
.	.	.	16f#	16a	.	.	.	.	.	.	.	.	.	.	.	.	16a
.	.	.	16f#	16a	.	.	.	.	.	.	.	.	.	.	.	.	16a
.	.	.	16g	16g	.	.	.	.	.	.	.	.	.	.	.	.	16g
*	*	*	*	*	*	*	*	*clefF4	*clefF4	*	*	*	*	*	*	*	*
=145	=145	=145	=145	=145	=145	=145	=145	=145	=145	=145	=145	=145	=145	=145	=145	=145	=145
4GGG	4GG	16B	4.g	4.g	2ryy	2ryy	2ryy	2GGG	[2GG	2ryy	16B	2ryy	2ryy	2ryy	16gg	2ryy	4.g
.	.	16d	.	.	.	.	.	.	.	.	16d	.	.	.	16dd	.	.
.	.	16g	.	.	.	.	.	.	.	.	16g	.	.	.	16bb	.	.
.	.	16f#	.	.	.	.	.	.	.	.	16f#	.	.	.	16aa	.	.
4r	4r	16e	.	.	.	.	.	.	.	.	16e	.	.	.	16gg	.	.
.	.	16d	.	.	.	.	.	.	.	.	16d	.	.	.	16ff#	.	.
.	.	16c	16b	8dd	.	.	.	.	.	.	16c	.	.	.	16ee	.	16bb
.	.	16B	16dd	.	.	.	.	.	.	.	16B	.	.	.	16dd	.	16ddd
=146	=146	=146	=146	=146	=146	=146	=146	=146	=146	=146	=146	=146	=146	=146	=146	=146	=146
*staff:1	*staff:1	*staff:2	*staff:3	*staff:4	*	*	*	*staff:5	*staff:5	*	*staff:6	*	*	*	*staff:7	*	*staff:8
4GGG	4GG	2c	16dd	16dd#	2ryy	2ryy	2ryy	2GGG	2GG_	2ryy	2c	2ryy	2ryy	2ryy	16dd#	2ryy	16ddd
.	.	.	16cc	16ee	.	.	.	.	.	.	.	.	.	.	16ee	.	16ccc
.	.	.	16cc	16ee	.	.	.	.	.	.	.	.	.	.	16ee	.	16ccc
.	.	.	16b	16ffn	.	.	.	.	.	.	.	.	.	.	16ffn	.	16bb
4r	4r	.	16b	16ff	.	.	.	.	.	.	.	.	.	.	16ff	.	16bb
.	.	.	16a	16ff#	.	.	.	.	.	.	.	.	.	.	16ff#	.	16aa
.	.	.	16a	16ff#	.	.	.	.	.	.	.	.	.	.	16ff#	.	16aa
.	.	.	16g	16gg	.	.	.	.	.	.	.	.	.	.	16gg	.	16gg
=147	=147	=147	=147	=147	=147	=147	=147	=147	=147	=147	=147	=147	=147	=147	=147	=147	=147
4GGG	4GG	16B	4.g	16gg	2ryy	2ryy	2ryy	2GGG	2GG_	2ryy	16B	2ryy	2ryy	2ryy	16gg	2ryy	4.gg
.	.	16d	.	16dd	.	.	.	.	.	.	16d	.	.	.	16dd	.	.
.	.	16g	.	16bb	.	.	.	.	.	.	16g	.	.	.	16bb	.	.
.	.	16f#	.	16aa	.	.	.	.	.	.	16f#	.	.	.	16aa	.	.
4r	4r	16e	.	16gg	.	.	.	.	.	.	16e	.	.	.	16gg	.	.
.	.	16d	.	16ff#	.	.	.	.	.	.	16d	.	.	.	16ff#	.	.
.	.	16c	16b	16ee	.	.	.	.	.	.	16c	.	.	.	16ee	.	16bb
.	.	16B	16dd	16dd	.	.	.	.	.	.	16B	.	.	.	16dd	.	16ddd
=148	=148	=148	=148	=148	=148	=148	=148	=148	=148	=148	=148	=148	=148	=148	=148	=148	=148
*	*	*	*	*	*	*	*	*	*	*staff:6	*	*	*	*	*	*	*
4GGG	4GG	2c	16dd	16dd#	2ryy	2ryy	2ryy	4GGG	4GG]	[2GG	2c	2ryy	2ryy	2ryy	16dd#	2ryy	16ddd
.	.	.	16cc	16ee	.	.	.	.	.	.	.	.	.	.	16ee	.	16ccc
.	.	.	16cc	16ee	.	.	.	.	.	.	.	.	.	.	16ee	.	16ccc
.	.	.	16b	16ffn	.	.	.	.	.	.	.	.	.	.	16ffn	.	16bb
4r	4r	.	16b	16ff	.	.	.	4ryy	4r	.	.	.	.	.	16ff	.	16bb
.	.	.	16a	16ff#	.	.	.	.	.	.	.	.	.	.	16ff#	.	16aa
.	.	.	16a	16ff#	.	.	.	.	.	.	.	.	.	.	16ff#	.	16aa
.	.	.	16g	16gg	.	.	.	.	.	.	.	.	.	.	16gg	.	16gg
*	*	*	*	*	*	*	*	*clefG2	*clefG2	*	*	*	*	*	*	*	*
=149	=149	=149	=149	=149	=149	=149	=149	=149	=149	=149	=149	=149	=149	=149	=149	=149	=149
4GGG	4GG	8B	8g	8gg	2ryy	2ryy	2ryy	16B	16g	8GG]	8B	2ryy	2ryy	2ryy	8gg	2ryy	8gg
.	.	.	.	.	.	.	.	16d	16a	.	.	.	.	.	.	.	.
.	.	8r	8r	8r	.	.	.	16d	16a	8ryy	8r	.	.	.	8r	.	8r
.	.	.	.	.	.	.	.	16g	16b	.	.	.	.	.	.	.	.
8r	8r	8r	8r	8r	.	.	.	16g	16b	8r	8r	.	.	.	8r	.	8r
.	.	.	.	.	.	.	.	16d	16a	.	.	.	.	.	.	.	.
8DD	8D	16a	16f#	16cc	.	.	.	16d	16a	8D	8D	.	.	.	16ff#	.	16ccc
.	.	16g	16g	16b	.	.	.	16B	16g	.	.	.	.	.	16gg	.	16bb
=150	=150	=150	=150	=150	=150	=150	=150	=150	=150	=150	=150	=150	=150	=150	=150	=150	=150
8GG	8G	8g	8g	8b	2ryy	2ryy	2ryy	16B	16g	8G	8G	2ryy	2ryy	2ryy	8gg	2ryy	8bb
.	.	.	.	.	.	.	.	16d	16a	.	.	.	.	.	.	.	.
8r	8r	8r	8r	8r	.	.	.	16d	16a	8r	8r	.	.	.	8r	.	8r
.	.	.	.	.	.	.	.	16g	16b	.	.	.	.	.	.	.	.
8r	8r	8r	8r	8r	.	.	.	16g	16b	8r	8r	.	.	.	8r	.	8r
.	.	.	.	.	.	.	.	16d	16a	.	.	.	.	.	.	.	.
8DD	8D	16A	16c	16f#	.	.	.	16d	16a	8D	8D	.	.	.	16cc	.	16ff#
.	.	16G	16B	16g	.	.	.	16B	16g	.	.	.	.	.	16b	.	16gg
=151	=151	=151	=151	=151	=151	=151	=151	=151	=151	=151	=151	=151	=151	=151	=151	=151	=151
8GGG	8GG	8G	8B	8g	2ryy	2ryy	2ryy	8B	8g	8GG	8GG	2ryy	2ryy	2ryy	8b	2ryy	8gg
8r	8r	8r	8r	8r	.	.	.	8ryy	8r	8r	8r	.	.	.	8r	.	8r
8GGG	8GG	8D	8B	8g	.	.	.	8B	8g	8G	8G	.	.	.	8dd	.	8dd
8r	8r	8r	8r	8r	.	.	.	8ryy	8r	8r	8r	.	.	.	8r	.	8r
=152	=152	=152	=152	=152	=152	=152	=152	=152	=152	=152	=152	=152	=152	=152	=152	=152	=152
4GGG	4GG	4D	4B	4g	2ryy	2ryy	2ryy	4B	4g	4GG	4GG	2ryy	2ryy	2ryy	4b	2ryy	4b
4r	4r	4r	4r	4r	.	.	.	4ryy	4r	4r	4r	.	.	.	4r	.	4r
==153||	==153||	==153||	==153||	==153||	==153||	==153||	==153||	==153||	==153||	==153||	==153||	==153||	==153||	==153||	==153||	==153||	==153||
*-	*-	*-	*-	*-	*-	*-	*-	*-	*-	*-	*-	*-	*-	*-	*-	*-	*-
